; generated by Slic3r 1.2.9 on 2017-05-05 at 12:44:36

; external perimeters extrusion width = 0.40mm
; perimeters extrusion width = 0.68mm
; infill extrusion width = 1.28mm
; solid infill extrusion width = 0.68mm
; top infill extrusion width = 0.68mm

M107
M104 S205 ; set temperature
; -- START GCODE --
M800        ; Custom GCODE to fire start print procedure
; -- end of START GCODE --
M109 S205 ; wait for temperature to be reached
G21 ; set units to millimeters
G90 ; use absolute coordinates
M82 ; use absolute distances for extrusion
G92 E0
G1 Z0.400 F12000.000
G1 E-2.00000 F2400.00000
G92 E0
G1 X67.894 Y64.220 F12000.000
G1 E2.00000 F2400.00000
G1 X69.650 Y62.720 E2.27422 F1800.000
G1 X71.810 Y61.905 E2.54845
G1 X73.067 Y61.786 E2.69842
G1 X127.067 Y61.786 E9.11174
G1 X129.341 Y62.183 E9.38596
G1 X131.347 Y63.327 E9.66019 F1800.000
G1 X132.846 Y65.083 E9.93441
G1 X133.662 Y67.243 E10.20864
G1 X133.781 Y68.500 E10.35860
G1 X133.781 Y131.500 E17.84081
G1 X133.384 Y133.775 E18.11503
G1 X132.240 Y135.780 E18.38926
G1 X130.484 Y137.280 E18.66348
G1 X128.324 Y138.095 E18.93771
G1 X127.067 Y138.214 E19.08767
G1 X73.067 Y138.214 E25.50099
G1 X70.792 Y137.817 E25.77522
G1 X68.787 Y136.673 E26.04944
G1 X67.287 Y134.917 E26.32367
G1 X66.471 Y132.757 E26.59789
G1 X66.353 Y131.500 E26.74786
G1 X66.353 Y68.500 E34.23007
G1 X66.750 Y66.225 E34.50429
G1 X67.864 Y64.272 E34.77139
G1 E32.77139 F2400.00000
G92 E0
G1 X78.864 Y75.614 F12000.000
G1 E2.00000 F2400.00000
G1 X77.606 Y76.091 E2.15985 F1800.000
G1 X76.270 Y75.929 E2.31969
G1 X75.162 Y75.165 E2.47954
G1 X74.537 Y73.973 E2.63938
G1 X74.537 Y72.627 E2.79923
G1 X75.162 Y71.435 E2.95907
G1 X76.270 Y70.671 E3.11892
G1 X77.585 Y70.511 E3.27630 F1800.000
G1 X78.863 Y70.985 E3.43817
G1 X79.757 Y71.993 E3.59820
G1 X80.079 Y73.300 E3.75805
G1 X79.757 Y74.607 E3.91789
G1 X78.904 Y75.569 E4.07061
G1 X78.864 Y76.014 F12000.000
G1 E2.07061 F2400.00000
G92 E0
G1 X77.417 Y69.927 F12000.000
G1 X77.391 Y69.714 F12000.000
G1 X76.015 Y69.798 F12000.000
G1 X76.107 Y69.915 F12000.000
G1 E2.00000 F2400.00000
G1 X74.612 Y70.948 E2.21584 F1800.000
G1 X74.507 Y71.147 E2.24256
G1 X74.181 Y71.066 E2.28243
G1 X74.181 Y69.614 E2.45491
G1 X76.013 Y69.614 E2.67253
G1 X76.089 Y69.858 E2.70285
G1 X78.172 Y69.967 F12000.000
G1 X78.236 Y69.614 E2.74542 F1800.000
G1 X125.953 Y69.614 E8.41254
G1 X125.953 Y130.386 E15.63010
G1 X74.181 Y130.386 E21.77878
G1 X74.181 Y75.534 E28.29332
G1 X74.507 Y75.453 E28.33319
G1 X74.612 Y75.652 E28.35991
G1 X76.009 Y76.617 E28.56156
G1 X77.695 Y76.822 E28.76322
G1 X79.282 Y76.220 E28.96488
G1 X80.408 Y74.949 E29.16653
G1 X80.814 Y73.300 E29.36819
G1 X80.408 Y71.651 E29.56985
G1 X79.279 Y70.377 E29.77204
G1 X78.229 Y69.988 E29.90508
G1 X73.467 Y68.900 F12000.000
G1 X126.667 Y68.900 E36.22339 F1800.000
G1 X126.667 Y131.100 E43.61059
G1 X73.467 Y131.100 E49.92889
G1 X73.467 Y68.960 E57.30896
G1 X73.813 Y69.100 F12000.000
G1 X74.259 Y71.453 F12000.000
G1 X74.002 Y72.539 E57.44147 F1800.000
G1 X74.002 Y74.061 E57.62222
G1 X74.259 Y75.147 E57.75472
G1 X77.292 Y79.906 F12000.000
G1 X94.096 Y89.529 F12000.000
G1 X100.067 Y95.500 F12000.000
G1 X126.067 Y69.500 F12000.000
G1 X125.517 Y70.393 F12000.000
G1 X125.174 Y70.050 E57.81234 F1800.000
G1 X124.164 Y70.050 E57.93236
G1 X125.517 Y71.403 E58.15970
G1 X125.517 Y72.413 E58.27971
G1 X123.154 Y70.050 E58.67678
G1 X122.144 Y70.050 E58.79679
G1 X125.517 Y73.423 E59.36358
G1 X125.517 Y74.434 E59.48359
G1 X121.133 Y70.050 E60.22010
G1 X120.123 Y70.050 E60.34011
G1 X125.517 Y75.444 E61.24634
G1 X125.517 Y76.454 E61.36635
G1 X119.113 Y70.050 E62.44230
G1 X118.103 Y70.050 E62.56232
G1 X125.517 Y77.464 E63.80799
G1 X125.517 Y78.475 E63.92800
G1 X117.092 Y70.050 E65.34340
G1 X116.082 Y70.050 E65.46341
G1 X125.517 Y79.485 E67.04852
G1 X125.517 Y80.495 E67.16853
G1 X115.072 Y70.050 E68.92337
G1 X114.062 Y70.050 E69.04338
G1 X125.517 Y81.505 E70.96794
G1 X125.517 Y82.515 E71.08795
G1 X113.051 Y70.050 E73.18224
G1 X112.041 Y70.050 E73.30225
G1 X125.517 Y83.526 E75.56625
G1 X125.517 Y84.536 E75.68626
G1 X111.031 Y70.050 E78.11998
G1 X110.021 Y70.050 E78.24000
G1 X125.517 Y85.546 E80.84344
G1 X125.517 Y86.556 E80.96345
G1 X109.011 Y70.050 E83.73662
G1 X108.000 Y70.050 E83.85663
G1 X125.517 Y87.567 E86.79952
G1 X125.517 Y88.577 E86.91953
G1 X106.990 Y70.050 E90.03214
G1 X105.980 Y70.050 E90.15215
G1 X125.517 Y89.587 E93.43448
G1 X125.517 Y90.597 E93.55449
G1 X104.970 Y70.050 E97.00655
G1 X103.959 Y70.050 E97.12656
G1 X125.517 Y91.608 E100.74833
G1 X125.517 Y92.618 E100.86834
G1 X102.949 Y70.050 E104.65984
G1 X101.939 Y70.050 E104.77985
G1 X125.517 Y93.628 E108.74107
G1 X125.517 Y94.638 E108.86108
G1 X100.929 Y70.050 E112.99202
G1 X99.918 Y70.050 E113.11203
G1 X125.517 Y95.648 E117.41269
G1 X125.517 Y96.659 E117.53270
G1 X98.908 Y70.050 E122.00308
G1 X97.898 Y70.050 E122.12309
G1 X125.517 Y97.669 E126.76319
G1 X125.517 Y98.679 E126.88321
G1 X96.888 Y70.050 E131.69303
G1 X95.877 Y70.050 E131.81304
G1 X125.517 Y99.689 E136.79259
G1 X125.517 Y100.700 E136.91260
G1 X94.867 Y70.050 E142.06187
G1 X93.857 Y70.050 E142.18188
G1 X125.517 Y101.710 E147.50086
G1 X125.517 Y102.720 E147.62088
G1 X92.847 Y70.050 E153.10959
G1 X91.837 Y70.050 E153.22960
G1 X125.517 Y103.730 E158.88803
G1 X125.517 Y104.741 E159.00804
G1 X90.826 Y70.050 E164.83619
G1 X89.816 Y70.050 E164.95620
G1 X125.517 Y105.751 E170.95408
G1 X125.517 Y106.761 E171.07409
G1 X88.806 Y70.050 E177.24169
G1 X87.796 Y70.050 E177.36170
G1 X125.517 Y107.771 E183.69901
G1 X125.517 Y108.782 E183.81903
G1 X86.785 Y70.050 E190.32606
G1 X85.775 Y70.050 E190.44608
G1 X125.517 Y109.792 E197.12284
G1 X125.517 Y110.802 E197.24285
G1 X84.765 Y70.050 E204.08933
G1 X83.755 Y70.050 E204.20934
G1 X125.517 Y111.812 E211.22554
G1 X125.517 Y112.822 E211.34555
G1 X82.744 Y70.050 E218.53148
G1 X81.734 Y70.050 E218.65149
G1 X125.517 Y113.833 E226.00714
G1 X125.517 Y114.843 E226.12715
G1 X80.724 Y70.050 E233.65252
G1 X80.084 Y70.420 E233.74035
G1 X125.517 Y115.853 E241.37322
G1 X125.517 Y116.863 E241.49324
G1 X81.093 Y72.439 E248.95669
G1 X81.173 Y73.530 E249.08668
G1 X125.517 Y117.874 E256.53653
G1 X125.517 Y118.884 E256.65654
G1 X80.974 Y74.340 E264.13995
G1 X80.749 Y75.126 E264.23704
G1 X125.517 Y119.894 E271.75815
G1 X125.517 Y120.904 E271.87816
G1 X80.275 Y75.662 E279.47901
G1 X79.800 Y76.197 E279.56403
G1 X125.517 Y121.915 E287.24460
G1 X125.517 Y122.925 E287.36461
G1 X79.245 Y76.652 E295.13846
G1 X78.512 Y76.930 E295.23152
G1 X125.517 Y123.935 E303.12842
G1 X125.517 Y124.945 E303.24843
G1 X77.780 Y77.208 E311.26839
G1 X76.724 Y77.162 E311.39399
G1 X125.517 Y125.955 E319.59141
G1 X125.517 Y126.966 E319.71142
G1 X75.447 Y76.895 E328.12335
G1 X74.617 Y77.075 E328.22428
G1 X125.517 Y127.976 E336.77571
G1 X125.517 Y128.986 E336.89572
G1 X74.617 Y78.086 E345.44715
G1 X74.617 Y79.096 E345.56716
G1 X125.471 Y129.950 E354.11085
G1 X124.461 Y129.950 E354.23086
G1 X74.617 Y80.106 E362.60483
G1 X74.617 Y81.116 E362.72484
G1 X123.451 Y129.950 E370.92909
G1 X122.440 Y129.950 E371.04910
G1 X74.617 Y82.126 E379.08362
G1 X74.617 Y83.137 E379.20363
G1 X121.430 Y129.950 E387.06844
G1 X120.420 Y129.950 E387.18845
G1 X74.617 Y84.147 E394.88353
G1 X74.617 Y85.157 E395.00354
G1 X119.410 Y129.950 E402.52890
G1 X118.400 Y129.950 E402.64892
G1 X74.617 Y86.167 E410.00455
G1 X74.617 Y87.178 E410.12457
G1 X117.389 Y129.950 E417.31048
G1 X116.379 Y129.950 E417.43049
G1 X74.617 Y88.188 E424.44669
G1 X74.617 Y89.198 E424.56670
G1 X115.369 Y129.950 E431.41318
G1 X114.359 Y129.950 E431.53319
G1 X74.617 Y90.208 E438.20994
G1 X74.617 Y91.219 E438.32995
G1 X113.348 Y129.950 E444.83699
G1 X112.338 Y129.950 E444.95700
G1 X74.617 Y92.229 E451.29431
G1 X74.617 Y93.239 E451.41432
G1 X111.328 Y129.950 E457.58191
G1 X110.318 Y129.950 E457.70192
G1 X74.617 Y94.249 E463.69979
G1 X74.617 Y95.259 E463.81980
G1 X109.307 Y129.950 E469.64794
G1 X108.297 Y129.950 E469.76796
G1 X74.617 Y96.270 E475.42638
G1 X74.617 Y97.280 E475.54639
G1 X107.287 Y129.950 E481.03509
G1 X106.277 Y129.950 E481.15511
G1 X74.617 Y98.290 E486.47409
G1 X74.617 Y99.300 E486.59410
G1 X105.267 Y129.950 E491.74336
G1 X104.256 Y129.950 E491.86337
G1 X74.617 Y100.311 E496.84291
G1 X74.617 Y101.321 E496.96292
G1 X103.246 Y129.950 E501.77274
G1 X102.236 Y129.950 E501.89275
G1 X74.617 Y102.331 E506.53285
G1 X74.617 Y103.341 E506.65286
G1 X101.226 Y129.950 E511.12323
G1 X100.215 Y129.950 E511.24324
G1 X74.617 Y104.352 E515.54390
G1 X74.617 Y105.362 E515.66391
G1 X99.205 Y129.950 E519.79484
G1 X98.195 Y129.950 E519.91485
G1 X74.617 Y106.372 E523.87606
G1 X74.617 Y107.382 E523.99607
G1 X97.185 Y129.950 E527.78756
G1 X96.174 Y129.950 E527.90757
G1 X74.617 Y108.392 E531.52934
G1 X74.617 Y109.403 E531.64935
G1 X95.164 Y129.950 E535.10140
G1 X94.154 Y129.950 E535.22141
G1 X74.617 Y110.413 E538.50373
G1 X74.617 Y111.423 E538.62374
G1 X93.144 Y129.950 E541.73635
G1 X92.133 Y129.950 E541.85636
G1 X74.617 Y112.433 E544.79924
G1 X74.617 Y113.444 E544.91925
G1 X91.123 Y129.950 E547.69241
G1 X90.113 Y129.950 E547.81242
G1 X74.617 Y114.454 E550.41586
G1 X74.617 Y115.464 E550.53587
G1 X89.103 Y129.950 E552.96959
G1 X88.093 Y129.950 E553.08960
G1 X74.617 Y116.474 E555.35360
G1 X74.617 Y117.485 E555.47361
G1 X87.082 Y129.950 E557.56788
G1 X86.072 Y129.950 E557.68789
G1 X74.617 Y118.495 E559.61245
G1 X74.617 Y119.505 E559.73246
G1 X85.062 Y129.950 E561.48729
G1 X84.052 Y129.950 E561.60730
G1 X74.617 Y120.515 E563.19241
G1 X74.617 Y121.526 E563.31242
G1 X83.041 Y129.950 E564.72781
G1 X82.031 Y129.950 E564.84782
G1 X74.617 Y122.536 E566.09349
G1 X74.617 Y123.546 E566.21350
G1 X81.021 Y129.950 E567.28944
G1 X80.011 Y129.950 E567.40946
G1 X74.617 Y124.556 E568.31568
G1 X74.617 Y125.566 E568.43569
G1 X79.000 Y129.950 E569.17219
G1 X77.990 Y129.950 E569.29220
G1 X74.617 Y126.577 E569.85899
G1 X74.617 Y127.587 E569.97900
G1 X76.980 Y129.950 E570.37606
G1 X75.970 Y129.950 E570.49607
G1 X74.617 Y128.597 E570.72341
G1 X74.617 Y129.607 E570.84342
G1 X74.960 Y129.950 E570.90103
G1 Z0.500 F12000.000
G1 E568.90103 F2400.00000
G92 E0
G1 X75.018 Y71.148 F12000.000
G1 E2.00000 F2400.00000
G1 X76.153 Y70.364 E2.03776 F900.000
G1 X77.645 Y70.183 E2.07891 F900.000
G1 X79.051 Y70.716 E2.12006
G1 X80.047 Y71.841 E2.16121
G1 X80.407 Y73.300 E2.20236
G1 X80.047 Y74.759 E2.24350
G1 X79.051 Y75.884 E2.28465
G1 X77.645 Y76.417 E2.32580
G1 X76.153 Y76.236 E2.36695
G1 X74.917 Y75.382 E2.40810
G1 X74.218 Y74.051 E2.44925
G1 X74.218 Y72.549 E2.49039
G1 X74.917 Y71.218 E2.53154
G1 X74.969 Y71.182 E2.53329
G1 X75.316 Y71.572 F12000.000
G1 X76.343 Y70.863 E2.55292 F900.000
G1 X77.581 Y70.713 E2.57255 F900.000
G1 X78.747 Y71.155 E2.59218
G1 X79.574 Y72.089 E2.61181
G1 X79.873 Y73.300 E2.63144
G1 X79.574 Y74.511 E2.65107
G1 X78.747 Y75.445 E2.67070
G1 X77.581 Y75.887 E2.69033
G1 X76.343 Y75.737 E2.70996
G1 X75.316 Y75.028 E2.72959
G1 X74.737 Y73.924 E2.74922
G1 X74.737 Y72.676 E2.76884
G1 X75.288 Y71.625 E2.78753
G1 X75.221 Y71.184 F12000.000
G1 X73.785 Y69.219 F12000.000
G1 X126.348 Y69.219 E4.22665 F2400.000
G1 X126.348 Y130.781 E5.91217
G1 X73.785 Y130.781 E7.35129
G1 X73.785 Y69.279 E9.03517
G1 X73.267 Y68.700 F12000.000
G1 X126.867 Y68.700 E9.87872 F1200.000
G1 X126.867 Y131.300 E10.86391
G1 X73.267 Y131.300 E11.70746
G1 X73.267 Y68.760 E12.69170
G1 X73.613 Y68.900 F12000.000
G1 X74.185 Y69.938 F12000.000
G1 X74.505 Y69.619 E12.71025 F1200.000
G1 X75.285 Y70.235 E12.75108
G1 X74.911 Y70.609 E12.77279
G1 X75.569 Y69.918 F12000.000
G1 X76.003 Y69.798 E12.79786 F1200.000
G1 X76.975 Y69.739 E12.85204
G1 X76.975 Y69.739 F12000.000
G1 X77.668 Y69.698 E12.87106 F1200.000
G1 X78.337 Y69.811 E12.88964
G1 X79.190 Y70.400 E12.91801
G1 X80.033 Y69.619 F12000.000
G1 X79.719 Y69.932 E12.93018 F1200.000
G1 X79.678 Y70.907 E12.95693
G1 X80.966 Y69.619 E13.00690
G1 X81.899 Y69.619 E13.03249
G1 X80.116 Y71.402 E13.10165
G1 X80.465 Y71.986 E13.12031
G1 X82.832 Y69.619 E13.21212
G1 X83.765 Y69.619 E13.23771
G1 X80.649 Y72.734 E13.35856
G1 X80.806 Y73.511 E13.38028
G1 X84.698 Y69.619 E13.53125
G1 X85.631 Y69.619 E13.55684
G1 X80.500 Y74.749 E13.75583
G1 X82.044 Y83.582 F12000.000
G1 X75.837 Y78.264 F12000.000
G1 X75.332 Y77.548 F12000.000
G1 X74.470 Y75.907 F12000.000
G1 X74.185 Y76.399 F12000.000
G1 X74.837 Y75.747 E13.78111 F1200.000
G1 X75.389 Y76.128 E13.79950
G1 X74.185 Y77.332 E13.84619
G1 X74.185 Y78.265 E13.87178
G1 X75.941 Y76.509 E13.93988
G1 X76.695 Y76.689 E13.96112
G1 X74.185 Y79.198 E14.05844
G1 X74.185 Y80.131 E14.08403
G1 X77.526 Y76.790 E14.21363
G1 X78.767 Y76.482 E14.24867
G1 X74.185 Y81.064 E14.42638
G1 X74.185 Y81.997 E14.45197
G1 X86.564 Y69.619 E14.93210
G1 X87.497 Y69.619 E14.95769
G1 X74.185 Y82.930 E15.47400
G1 X74.185 Y83.863 E15.49959
G1 X88.430 Y69.619 E16.05210
G1 X89.363 Y69.619 E16.07769
G1 X74.185 Y84.796 E16.66638
G1 X74.185 Y85.729 E16.69197
G1 X90.295 Y69.619 E17.31686
G1 X91.228 Y69.619 E17.34245
G1 X74.185 Y86.662 E18.00352
G1 X74.185 Y87.595 E18.02911
G1 X92.161 Y69.619 E18.72637
G1 X93.094 Y69.619 E18.75196
G1 X74.185 Y88.528 E19.48541
G1 X74.185 Y89.460 E19.51100
G1 X94.027 Y69.619 E20.28064
G1 X94.960 Y69.619 E20.30623
G1 X74.185 Y90.393 E21.11205
G1 X74.185 Y91.326 E21.13764
G1 X95.893 Y69.619 E21.97966
G1 X96.826 Y69.619 E22.00525
G1 X74.185 Y92.259 E22.88345
G1 X74.185 Y93.192 E22.90904
G1 X97.759 Y69.619 E23.82344
G1 X98.692 Y69.619 E23.84903
G1 X74.185 Y94.125 E24.79961
G1 X74.185 Y95.058 E24.82520
G1 X99.625 Y69.619 E25.81197
G1 X100.558 Y69.619 E25.83756
G1 X74.185 Y95.991 E26.86052
G1 X74.185 Y96.924 E26.88611
G1 X101.491 Y69.619 E27.94525
G1 X102.424 Y69.619 E27.97084
G1 X74.185 Y97.857 E29.06618
G1 X74.185 Y98.790 E29.09177
G1 X103.357 Y69.619 E30.22329
G1 X104.290 Y69.619 E30.24888
G1 X74.185 Y99.723 E31.41660
G1 X74.185 Y100.656 E31.44219
G1 X105.223 Y69.619 E32.64609
G1 X106.156 Y69.619 E32.67168
G1 X74.185 Y101.589 E33.91177
G1 X74.185 Y102.522 E33.93736
G1 X107.089 Y69.619 E35.21364
G1 X108.022 Y69.619 E35.23923
G1 X74.185 Y103.455 E36.55170
G1 X74.185 Y104.388 E36.57729
G1 X108.955 Y69.619 E37.92595
G1 X109.888 Y69.619 E37.95153
G1 X74.185 Y105.321 E39.33638
G1 X74.185 Y106.254 E39.36197
G1 X110.821 Y69.619 E40.78300
G1 X111.754 Y69.619 E40.80859
G1 X74.185 Y107.187 E42.26582
G1 X74.185 Y108.120 E42.29141
G1 X112.687 Y69.619 E43.78482
G1 X113.620 Y69.619 E43.81041
G1 X74.185 Y109.053 E45.34001
G1 X74.185 Y109.986 E45.36560
G1 X114.553 Y69.619 E46.93139
G1 X115.486 Y69.619 E46.95698
G1 X74.185 Y110.919 E48.55896
G1 X74.185 Y111.852 E48.58454
G1 X116.419 Y69.619 E50.22271
G1 X117.352 Y69.619 E50.24830
G1 X74.185 Y112.785 E51.92266
G1 X74.185 Y113.718 E51.94825
G1 X118.285 Y69.619 E53.65879
G1 X119.218 Y69.619 E53.68438
G1 X74.185 Y114.651 E55.43111
G1 X74.185 Y115.584 E55.45670
G1 X120.151 Y69.619 E57.23962
G1 X121.084 Y69.619 E57.26521
G1 X74.185 Y116.517 E59.08432
G1 X74.185 Y117.450 E59.10991
G1 X122.017 Y69.619 E60.96521
G1 X122.950 Y69.619 E60.99080
G1 X74.185 Y118.383 E62.88229
G1 X74.185 Y119.316 E62.90788
G1 X123.883 Y69.619 E64.83555
G1 X124.816 Y69.619 E64.86114
G1 X74.185 Y120.249 E66.82501
G1 X74.185 Y121.182 E66.85060
G1 X125.748 Y69.619 E68.85065
G1 X125.948 Y70.352 E68.87149
G1 X74.185 Y122.115 E70.87930
G1 X74.185 Y123.048 E70.90489
G1 X125.948 Y71.285 E72.91269
G1 X125.948 Y72.218 E72.93828
G1 X74.185 Y123.981 E74.94608
G1 X74.185 Y124.913 E74.97167
G1 X125.948 Y73.151 E76.97948
G1 X125.948 Y74.084 E77.00507
G1 X74.185 Y125.846 E79.01287
G1 X74.185 Y126.779 E79.03846
G1 X125.948 Y75.017 E81.04627
G1 X125.948 Y75.950 E81.07186
G1 X74.185 Y127.712 E83.07966
G1 X74.185 Y128.645 E83.10525
G1 X125.948 Y76.883 E85.11305
G1 X125.948 Y77.816 E85.13864
G1 X74.185 Y129.578 E87.14645
G1 X74.315 Y130.381 E87.16876
G1 X125.948 Y78.748 E89.17153
G1 X125.948 Y79.681 E89.19712
G1 X75.248 Y130.381 E91.16369
G1 X76.181 Y130.381 E91.18928
G1 X125.948 Y80.614 E93.11967
G1 X125.948 Y81.547 E93.14526
G1 X77.114 Y130.381 E95.03946
G1 X78.047 Y130.381 E95.06505
G1 X125.948 Y82.480 E96.92306
G1 X125.948 Y83.413 E96.94865
G1 X78.980 Y130.381 E98.77047
G1 X79.913 Y130.381 E98.79606
