; generated by Slic3r 1.2.9 on 2017-05-09 at 14:32:12

; external perimeters extrusion width = 0.40mm
; perimeters extrusion width = 0.68mm
; infill extrusion width = 1.28mm
; solid infill extrusion width = 0.68mm
; top infill extrusion width = 0.68mm

M107
M104 S205 ; set temperature
; -- START GCODE --
M800        ; Custom GCODE to fire start print procedure
; -- end of START GCODE --
M109 S205 ; wait for temperature to be reached
G21 ; set units to millimeters
G90 ; use absolute coordinates
M82 ; use absolute distances for extrusion
G92 E0
G1 Z0.400 F12000.000
G1 E-2.00000 F2400.00000
G92 E0
G1 X49.827 Y43.220 F12000.000
G1 E2.00000 F2400.00000
G1 X51.583 Y41.720 E2.27422 F1800.000
G1 X53.743 Y40.905 E2.54845
G1 X55.000 Y40.786 E2.69842
G1 X145.000 Y40.786 E13.38728
G1 X147.275 Y41.183 E13.66151
G1 X149.280 Y42.327 E13.93573 F1800.000
G1 X150.780 Y44.083 E14.20996
G1 X151.595 Y46.243 E14.48418
G1 X151.714 Y47.500 E14.63415
G1 X151.714 Y152.500 E27.10449
G1 X151.317 Y154.775 E27.37872
G1 X150.173 Y156.780 E27.65294
G1 X148.417 Y158.280 E27.92717
G1 X146.257 Y159.095 E28.20139
G1 X145.000 Y159.214 E28.35136
G1 X55.000 Y159.214 E39.04022
G1 X52.725 Y158.817 E39.31445
G1 X50.720 Y157.673 E39.58867
G1 X49.220 Y155.917 E39.86290
G1 X48.405 Y153.757 E40.13712
G1 X48.286 Y152.500 E40.28709
G1 X48.286 Y47.500 E52.75743
G1 X48.683 Y45.225 E53.03166
G1 X49.797 Y43.272 E53.29876
G1 E51.29876 F2400.00000
G92 E0
G1 X71.764 Y145.216 F12000.000
G1 E2.00000 F2400.00000
G1 X72.444 Y146.153 E2.13751 F1800.000
G1 X72.685 Y147.333 E2.28058
G1 X72.444 Y148.529 E2.42548
G1 X71.765 Y149.475 E2.56380
G1 X70.741 Y150.084 E2.70523
G1 X69.472 Y150.295 E2.85802
G1 X68.187 Y150.084 E3.01269
G1 X67.155 Y149.476 E3.15499
G1 X66.471 Y148.530 E3.29363
G1 X66.230 Y147.333 E3.43864
G1 X66.472 Y146.152 E3.58181
G1 X67.156 Y145.215 E3.71964
G1 X68.188 Y144.611 E3.86164
G1 X69.350 Y144.420 E4.00148
G1 X69.472 Y144.400 E4.01623 F1800.000
G1 X70.741 Y144.611 E4.16894
G1 X71.712 Y145.185 E4.30294
G1 X72.153 Y145.120 F12000.000
G1 X72.316 Y142.994 F12000.000
G1 X66.600 Y142.994 E4.98181 F1800.000
G1 X66.600 Y126.386 E6.95426
G1 X72.316 Y126.386 E7.63312
G1 X72.316 Y142.934 E9.59845
G1 X72.316 Y143.394 F12000.000
G1 E7.59845 F2400.00000
G92 E0
G1 X66.000 Y125.786 F12000.000
G1 X66.000 Y115.786 F12000.000
G1 X58.777 Y107.621 F12000.000
G1 X58.777 Y104.844 F12000.000
G1 X59.377 Y104.244 F12000.000
G1 E2.00000 F2400.00000
G1 X59.377 Y62.100 E7.00524 F1800.000
G1 X70.122 Y62.100 E8.28137
G1 X70.122 Y75.834 E9.91249
G1 X74.582 Y75.834 E10.44213
G1 X80.905 Y76.677 E11.19972
G1 X86.248 Y79.310 E11.90717
G1 X89.934 Y83.862 E12.60287
G1 X91.296 Y90.399 E13.39597
G1 X89.945 Y96.995 E14.19558
G1 X86.241 Y101.287 E14.86891
G1 X80.817 Y103.572 E15.56796
G1 X74.298 Y104.244 E16.34628
G1 X59.437 Y104.244 E18.11120
G1 X58.977 Y104.244 F12000.000
G1 E16.11120 F2400.00000
G92 E0
G1 X70.722 Y75.234 F12000.000
G1 X76.115 Y67.000 F12000.000
G1 X73.727 Y64.377 F12000.000
G1 X70.722 Y61.436 F12000.000
G1 X69.999 Y61.436 F12000.000
G1 X69.999 Y61.372 F12000.000
G1 X70.599 Y60.772 F12000.000
G1 E2.00000 F2400.00000
G1 X70.599 Y52.100 E3.02993 F1800.000
G1 X73.858 Y52.100 E3.41699
G1 X73.858 Y56.929 E3.99050
G1 X74.144 Y57.459 E4.06204
G1 X74.492 Y57.817 E4.12131
G1 X74.841 Y58.002 E4.16825
G1 X75.183 Y58.058 E4.20937
G1 X75.563 Y58.028 E4.25465
G1 X76.528 Y57.815 E4.37197
G1 X76.280 Y56.460 E4.53557
G1 X76.630 Y54.552 E4.76599
G1 X77.581 Y53.110 E4.97100
G1 X78.953 Y52.210 E5.16601
G1 X80.548 Y51.903 E5.35884
G1 X82.162 Y52.210 E5.55396
G1 X83.531 Y53.111 E5.74863
G1 X84.480 Y54.552 E5.95351
G1 X84.829 Y56.460 E6.18390
G1 X84.480 Y58.377 E6.41530
G1 X83.532 Y59.822 E6.62065
G1 X82.163 Y60.726 E6.81540
G1 X80.562 Y61.035 E7.00905
G1 X78.953 Y60.726 E7.20363
G1 X77.580 Y59.823 E7.39880
G1 X76.868 Y58.739 E7.55281
G1 X76.542 Y58.873 E7.59473
G1 X76.898 Y60.667 E7.81204
G1 X76.407 Y60.893 E7.87620
G1 X76.144 Y60.970 E7.90875
G1 X75.841 Y61.014 E7.94511
G1 X75.462 Y61.029 E7.99013
G1 X74.760 Y60.916 E8.07459
G1 X74.059 Y60.573 E8.16728
G1 X73.458 Y60.045 E8.26232
G1 X73.366 Y60.772 E8.34930
G1 X70.659 Y60.772 E8.67075
G1 X70.199 Y60.772 F12000.000
G1 X84.262 Y60.772 F12000.000
G1 X87.154 Y52.100 E9.75643 F1800.000
G1 X90.594 Y52.100 E10.16498
G1 X93.408 Y60.772 E11.24780
G1 X90.177 Y60.772 E11.63154
G1 X89.055 Y56.567 E12.14841
G1 X88.719 Y56.566 E12.18837
G1 X87.611 Y60.772 E12.70491
G1 X84.322 Y60.772 E13.09553
G1 X83.871 Y60.687 F12000.000
G1 E11.09553 F2400.00000
G92 E0
G1 X92.387 Y55.681 F12000.000
G1 X100.406 Y54.752 F12000.000
G1 X100.627 Y55.352 F12000.000
G1 E2.00000 F2400.00000
G1 X100.765 Y56.140 E2.09506 F1800.000
G1 X100.804 Y56.824 E2.17642
G1 X100.580 Y58.442 E2.37043
G1 X99.875 Y59.795 E2.55151
G1 X98.672 Y60.710 E2.73111
G1 X97.011 Y61.036 E2.93211
G1 X95.458 Y60.716 E3.12041
G1 X94.126 Y59.799 E3.31248
G1 X93.200 Y58.357 E3.51595
G1 X92.857 Y56.476 E3.74302
G1 X93.192 Y54.561 E3.97399
G1 X94.133 Y53.111 E4.17925
G1 X95.547 Y52.208 E4.37851
G1 X97.258 Y51.905 E4.58495
G1 X98.059 Y51.971 E4.68040
G1 X98.855 Y52.158 E4.77746
G1 X99.628 Y52.462 E4.87622
G1 X100.647 Y53.062 E5.01659
G1 X99.393 Y55.352 E5.32666
G1 X100.567 Y55.352 E5.46605
G1 X101.024 Y55.306 F12000.000
G1 X101.391 Y52.100 F12000.000
G1 X104.650 Y52.100 E5.85311 F1800.000
G1 X104.650 Y57.625 E6.50930
G1 X104.840 Y57.796 E6.53966
G1 X105.104 Y57.980 E6.57784
G1 X105.346 Y58.079 E6.60890
G1 X105.616 Y58.112 E6.64126
G1 X105.863 Y58.071 E6.67095
G1 X105.983 Y57.975 E6.68926
G1 X106.092 Y57.695 E6.72486
G1 X106.141 Y57.090 E6.79701
G1 X106.141 Y52.100 E7.38962
G1 X109.414 Y52.100 E7.77834
G1 X109.414 Y57.434 E8.41186
G1 X109.263 Y58.853 E8.58135
G1 X108.759 Y60.008 E8.73100
G1 X107.845 Y60.776 E8.87279
G1 X106.570 Y61.033 E9.02724
G1 X105.703 Y60.924 E9.13107
G1 X104.954 Y60.636 E9.22638
G1 X104.246 Y60.183 E9.32621
G1 X104.139 Y60.772 E9.39732
G1 X101.391 Y60.772 E9.72372
G1 X101.391 Y52.160 E10.74652
G1 X101.391 Y51.700 F12000.000
G1 E8.74652 F2400.00000
G92 E0
G1 X106.593 Y61.641 F12000.000
G1 X106.206 Y89.156 F12000.000
G1 X110.193 Y106.515 F12000.000
G1 X114.728 Y106.779 F12000.000
G1 X120.286 Y107.348 F12000.000
G1 X120.286 Y125.786 F12000.000
G1 X120.172 Y125.672 F12000.000
G1 E2.00000 F2400.00000
G1 X127.316 Y125.672 E2.84850 F1800.000
G1 X127.316 Y136.838 E4.17471
G1 X127.576 Y137.069 E4.21600
G1 X128.060 Y137.405 E4.28600
G1 X128.473 Y137.574 E4.33903
G1 X128.928 Y137.629 E4.39345
G1 X129.298 Y137.569 E4.43797
G1 X129.409 Y137.480 E4.45481
G1 X129.578 Y137.048 E4.50993
G1 X129.672 Y135.904 E4.64624
G1 X129.672 Y125.672 E5.86152
G1 X136.844 Y125.672 E6.71334
G1 X136.844 Y136.620 E8.01361
G1 X136.536 Y139.516 E8.35950
G1 X135.480 Y141.934 E8.67288
G1 X133.533 Y143.566 E8.97453
G1 X130.856 Y144.106 E9.29894
G1 X129.031 Y143.877 E9.51729
G1 X127.468 Y143.275 E9.71629
G1 X126.439 Y142.617 E9.86136
G1 X126.254 Y143.708 E9.99275
G1 X120.172 Y143.708 E10.71519
G1 X120.172 Y125.732 E12.85015
G1 X120.886 Y126.386 F12000.000
G1 X126.602 Y126.386 E13.52901 F1800.000
G1 X126.602 Y137.159 E14.80851
G1 X127.133 Y137.631 E14.89298
G1 X127.717 Y138.037 E14.97736
G1 X128.292 Y138.272 E15.05110
G1 X128.943 Y138.351 E15.12904
G1 X129.598 Y138.243 E15.20782
G1 X130.004 Y137.919 E15.26957
G1 X130.281 Y137.211 E15.35988
G1 X130.386 Y135.933 E15.51209
G1 X130.386 Y126.386 E16.64602
G1 X136.130 Y126.386 E17.32820
G1 X136.130 Y136.582 E18.53916
G1 X135.837 Y139.331 E18.86748
G1 X134.892 Y141.494 E19.14787
G1 X133.214 Y142.902 E19.40801
G1 X130.829 Y143.383 E19.69697
G1 X129.207 Y143.179 E19.89113
G1 X127.792 Y142.635 E20.07120
G1 X126.557 Y141.845 E20.24529
G1 X125.936 Y141.303 E20.34313
G1 X125.651 Y142.994 E20.54679
G1 X120.886 Y142.994 E21.11272
G1 X120.886 Y126.446 E23.07805
G1 X120.886 Y125.986 F12000.000
G1 X134.107 Y86.934 F12000.000
G1 X131.949 Y88.379 E23.38650 F1800.000
G1 X130.505 Y89.102 E23.57835
G1 X128.804 Y89.617 E23.78941
G1 X126.815 Y89.814 E24.02679
G1 X123.987 Y89.403 E24.36620
G1 X121.678 Y88.176 E24.67672
G1 X120.133 Y86.200 E24.97462
G1 X119.590 Y83.662 E25.28282
G1 X120.070 Y81.471 E25.54927
G1 X121.289 Y79.844 E25.79070
G1 X122.076 Y79.281 E25.90568
G1 X118.358 Y74.060 E26.66698
G1 X120.703 Y72.454 E27.00457
G1 X122.406 Y71.677 E27.22684
G1 X124.206 Y71.176 E27.44880
G1 X126.030 Y70.994 E27.66641
G1 X129.201 Y71.437 E28.04670
G1 X131.650 Y72.735 E28.37596
G1 X133.207 Y74.769 E28.68011
G1 X133.728 Y77.278 E28.98451
G1 X133.260 Y79.585 E29.26404
G1 X132.035 Y81.255 E29.51008
G1 X131.435 Y81.670 E29.59666
G1 X131.435 Y83.394 E29.80137
G1 X134.071 Y86.886 E30.32101
G1 X133.082 Y86.761 F12000.000
G1 X131.589 Y87.761 E30.53436 F1800.000
G1 X130.239 Y88.436 E30.71365
G1 X128.664 Y88.914 E30.90916
G1 X126.831 Y89.095 E31.12786
G1 X124.212 Y88.714 E31.44218
G1 X122.147 Y87.616 E31.71994
G1 X120.797 Y85.890 E31.98029
G1 X120.320 Y83.664 E32.25059
G1 X120.734 Y81.775 E32.48026
G1 X121.794 Y80.361 E32.69015
G1 X123.199 Y79.357 E32.89523
G1 X124.683 Y78.662 E33.08992
G1 X125.857 Y78.207 E33.23943
G1 X126.815 Y77.782 E33.36382
G1 X127.391 Y77.369 E33.44808
G1 X127.563 Y76.962 E33.50054
G1 X127.501 Y76.661 E33.53702
G1 X127.295 Y76.418 E33.57487
G1 X126.859 Y76.232 E33.63115
G1 X126.120 Y76.156 E33.71938
G1 X125.253 Y76.251 E33.82300
G1 X124.345 Y76.542 E33.93624
G1 X123.383 Y77.035 E34.06467
G1 X122.021 Y77.973 E34.26097
G1 X119.361 Y74.238 E34.80550
G1 X121.056 Y73.078 E35.04937
G1 X122.651 Y72.350 E35.25766
G1 X124.339 Y71.881 E35.46564
G1 X126.016 Y71.713 E35.66580
G1 X128.978 Y72.127 E36.02100
G1 X131.178 Y73.293 E36.31679
G1 X132.541 Y75.074 E36.58307
G1 X132.999 Y77.280 E36.85072
G1 X132.592 Y79.289 E37.09418
G1 X131.530 Y80.736 E37.30732
G1 X130.104 Y81.722 E37.51323
G1 X128.572 Y82.399 E37.71221
G1 X127.393 Y82.810 E37.86046
G1 X126.460 Y83.189 E37.98009
G1 X125.917 Y83.565 E38.05848
G1 X125.758 Y83.953 E38.10829
G1 X125.815 Y84.224 E38.14113
G1 X125.997 Y84.431 E38.17389
G1 X126.377 Y84.588 E38.22276
G1 X127.003 Y84.651 E38.29748
G1 X127.719 Y84.562 E38.38321
G1 X128.470 Y84.309 E38.47732
G1 X129.254 Y83.909 E38.58176
G1 X130.721 Y82.964 E38.78910
G1 X130.721 Y83.633 E38.86857
G1 X133.046 Y86.713 E39.32689
G1 X133.311 Y87.089 F12000.000
G1 E37.32689 F2400.00000
G92 E0
G1 X120.176 Y81.519 F12000.000
G1 X84.512 Y69.133 F12000.000
G1 X75.624 Y66.530 F12000.000
G1 X70.722 Y61.436 F12000.000
G1 X69.999 Y61.436 F12000.000
G1 X67.892 Y59.393 F12000.000
G1 X67.971 Y59.182 F12000.000
G1 X66.454 Y57.838 F12000.000
G1 X66.558 Y57.892 F12000.000
G1 E2.00000 F2400.00000
G1 X64.924 Y59.736 E2.29261 F1800.000
G1 X62.620 Y60.610 E2.58521
G1 X60.175 Y60.313 E2.87782
G1 X58.147 Y58.913 E3.17043
G1 X57.002 Y56.732 E3.46304
G1 X57.002 Y54.268 E3.75565
G1 X58.147 Y52.087 E4.04826
G1 X60.175 Y50.687 E4.34087 F1800.000
G1 X62.620 Y50.390 E4.63348
G1 X64.924 Y51.264 E4.92609
G1 X66.558 Y53.108 E5.21869
G1 X67.148 Y55.500 E5.51130
G1 X66.572 Y57.834 E5.79678
G1 X65.907 Y57.550 F12000.000
G1 X64.506 Y59.131 E6.04758 F1800.000
G1 X62.532 Y59.880 E6.29837
G1 X60.435 Y59.625 E6.54917
G1 X58.698 Y58.426 E6.79997
G1 X57.716 Y56.556 E7.05077
G1 X57.716 Y54.444 E7.30156
G1 X58.698 Y52.574 E7.55236
G1 X60.435 Y51.375 E7.80316
G1 X62.295 Y51.149 E8.02563
G1 X62.532 Y51.120 E8.05396 F1800.000
G1 X64.506 Y51.869 E8.30475
G1 X65.907 Y53.450 E8.55555
G1 X66.412 Y55.500 E8.80635
G1 X65.921 Y57.492 E9.05002
G1 X66.092 Y57.905 F12000.000
G1 X69.885 Y51.386 F12000.000
G1 X69.885 Y61.386 E10.23767 F1800.000
G1 X58.663 Y61.386 E11.57045
G1 X58.663 Y104.958 E16.74533
G1 X74.334 Y104.958 E18.60654
G1 X80.996 Y104.272 E19.40188
G1 X86.672 Y101.880 E20.13344
G1 X90.607 Y97.321 E20.84873
G1 X92.026 Y90.398 E21.68798
G1 X90.598 Y83.547 E22.51915
G1 X86.704 Y78.738 E23.25402
G1 X81.115 Y75.984 E23.99400
G1 X74.629 Y75.120 E24.77114
G1 X70.836 Y75.120 E25.22159
G1 X70.836 Y61.486 E26.84079
G1 X73.995 Y61.486 E27.21596
G1 X74.013 Y61.346 E27.23276
G1 X74.542 Y61.604 E27.30267
G1 X75.419 Y61.746 E27.40825
G1 X75.907 Y61.726 E27.46625
G1 X76.295 Y61.669 E27.51285
G1 X76.657 Y61.564 E27.55755
G1 X77.708 Y61.081 E27.69494
G1 X77.635 Y60.714 E27.73940
G1 X78.679 Y61.400 E27.88783
G1 X80.562 Y61.763 E28.11560
G1 X82.438 Y61.400 E28.34247
G1 X83.153 Y60.928 E28.44424
G1 X83.395 Y61.114 E28.48050
G1 X83.271 Y61.486 E28.52712
G1 X88.161 Y61.486 E29.10785
G1 X88.726 Y59.349 E29.37038
G1 X89.055 Y59.349 E29.40948
G1 X89.630 Y61.486 E29.67236
G1 X94.391 Y61.486 E30.23784
G1 X94.272 Y61.119 E30.28365
G1 X94.518 Y60.936 E30.32013
G1 X95.172 Y61.386 E30.41446
G1 X97.007 Y61.764 E30.63699
G1 X98.972 Y61.379 E30.87476
G1 X100.677 Y60.082 E31.12918
G1 X100.677 Y61.486 E31.29592
G1 X104.736 Y61.486 E31.77801
G1 X104.765 Y61.328 E31.79706
G1 X105.527 Y61.622 E31.89413
G1 X106.597 Y61.756 E32.02216
G1 X108.164 Y61.440 E32.21208
G1 X109.347 Y60.448 E32.39540
G1 X109.906 Y59.166 E32.56139
G1 X110.739 Y60.363 E32.73449
G1 X112.441 Y61.408 E32.97181
G1 X114.376 Y61.751 E33.20515
G1 X115.307 Y61.668 E33.31615
G1 X116.114 Y61.441 E33.41578
G1 X116.833 Y61.085 E33.51103
G1 X117.408 Y60.664 E33.59563
G1 X118.082 Y61.025 E33.68645
G1 X119.044 Y61.406 E33.80929
G1 X120.071 Y61.656 E33.93487
G1 X121.199 Y61.749 E34.06930
G1 X122.931 Y61.474 E34.27755
G1 X124.364 Y60.526 E34.48158
G1 X124.620 Y60.058 E34.54491
G1 X124.942 Y60.141 E34.58439
G1 X124.942 Y61.486 E34.74414
G1 X129.002 Y61.486 E35.22623
G1 X129.030 Y61.328 E35.24528
G1 X129.793 Y61.622 E35.34237
G1 X130.863 Y61.756 E35.47038
G1 X132.430 Y61.440 E35.66030
G1 X133.613 Y60.448 E35.84363
G1 X133.714 Y60.216 E35.87365
G1 X135.227 Y61.025 E36.07744
G1 X136.189 Y61.406 E36.20029
G1 X137.215 Y61.656 E36.32581
G1 X138.344 Y61.749 E36.46029
G1 X140.075 Y61.474 E36.66854
G1 X141.508 Y60.526 E36.87259
G1 X142.361 Y58.973 E37.08297
G1 X142.610 Y57.081 E37.30962
G1 X142.610 Y51.386 E37.98600
G1 X138.592 Y51.386 E38.46319
G1 X138.559 Y51.528 E38.48055
G1 X137.861 Y51.287 E38.56833
G1 X136.938 Y51.182 E38.67868
G1 X135.555 Y51.449 E38.84596
G1 X134.394 Y52.263 E39.01433
G1 X134.394 Y51.386 E39.11849
G1 X121.447 Y51.386 E40.65611
G1 X121.415 Y51.528 E40.67347
G1 X120.716 Y51.287 E40.76125
G1 X119.793 Y51.182 E40.87159
G1 X118.410 Y51.449 E41.03887
G1 X117.298 Y52.228 E41.20012
G1 X116.967 Y51.976 E41.24959
G1 X116.435 Y51.690 E41.32133
G1 X116.759 Y51.226 E41.38864
G1 X116.929 Y50.281 E41.50265
G1 X116.539 Y48.973 E41.66476
G1 X116.098 Y48.614 E41.73229
G1 X143.886 Y48.614 E45.03251
G1 X143.886 Y151.386 E57.23821
G1 X69.664 Y151.386 E66.05322
G1 X69.631 Y150.993 E66.10007
G1 X70.991 Y150.766 E66.26381
G1 X72.258 Y150.013 E66.43888
G1 X73.114 Y148.821 E66.61318
G1 X73.414 Y147.332 E66.79355
G1 X73.113 Y145.859 E66.97216
G1 X72.255 Y144.676 E67.14563
G1 X71.150 Y144.023 E67.29808
G1 X71.236 Y143.708 E67.33693
G1 X73.030 Y143.708 E67.55002
G1 X73.030 Y125.672 E69.69211
G1 X65.886 Y125.672 E70.54060
G1 X65.886 Y143.708 E72.68269
G1 X67.691 Y143.708 E72.89705
G1 X67.777 Y144.024 E72.93599
G1 X66.667 Y144.673 E73.08868
G1 X65.804 Y145.857 E73.26264
G1 X65.501 Y147.332 E73.44149
G1 X65.802 Y148.823 E73.62210
G1 X66.663 Y150.016 E73.79690
G1 X67.940 Y150.767 E73.97281
G1 X69.310 Y150.992 E74.13772
G1 X69.278 Y151.386 E74.18462
G1 X56.114 Y151.386 E75.74803
G1 X56.114 Y48.614 E87.95373
G1 X111.453 Y48.614 E94.52611
G1 X111.082 Y50.639 E94.77066
G1 X111.414 Y50.671 E94.81033
G1 X111.927 Y51.727 E94.94977
G1 X111.637 Y51.827 E94.98625
G1 X110.128 Y53.087 E95.21974
G1 X110.128 Y51.386 E95.42180
G1 X100.677 Y51.386 E96.54429
G1 X100.677 Y52.251 E96.64702
G1 X99.942 Y51.819 E96.74823
G1 X99.068 Y51.474 E96.85980
G1 X98.171 Y51.263 E96.96932
G1 X97.225 Y51.186 E97.08205
G1 X95.282 Y51.529 E97.31635
G1 X93.618 Y52.593 E97.55089
G1 X92.513 Y54.294 E97.79182
G1 X92.473 Y54.524 E97.81955
G1 X92.139 Y54.548 E97.85934
G1 X91.113 Y51.386 E98.25415
G1 X86.639 Y51.386 E98.78547
G1 X85.551 Y54.650 E99.19406
G1 X85.219 Y54.626 E99.23353
G1 X85.156 Y54.280 E99.27529
G1 X84.047 Y52.595 E99.51488
G1 X82.435 Y51.534 E99.74399
G1 X80.547 Y51.176 E99.97227
G1 X78.680 Y51.535 E100.19807
G1 X77.066 Y52.594 E100.42738
G1 X75.954 Y54.280 E100.66716
