; generated by Slic3r 1.2.9 on 2017-05-08 at 11:30:39

; external perimeters extrusion width = 0.40mm
; perimeters extrusion width = 0.68mm
; infill extrusion width = 1.28mm
; solid infill extrusion width = 0.68mm
; top infill extrusion width = 0.68mm

M107
M104 S205 ; set temperature
; -- START GCODE --
M800        ; Custom GCODE to fire start print procedure
; -- end of START GCODE --
M109 S205 ; wait for temperature to be reached
G21 ; set units to millimeters
G90 ; use absolute coordinates
M82 ; use absolute distances for extrusion
G92 E0
G1 Z0.400 F12000.000
G1 E-2.00000 F2400.00000
G92 E0
G1 X72.327 Y69.470 F12000.000
G1 E2.00000 F2400.00000
G1 X74.083 Y67.970 E2.27422 F1800.000
G1 X76.243 Y67.155 E2.54845
G1 X77.500 Y67.036 E2.69842
G1 X122.500 Y67.036 E8.04285
G1 X124.775 Y67.433 E8.31707
G1 X126.780 Y68.577 E8.59130 F1800.000
G1 X128.280 Y70.333 E8.86552
G1 X129.095 Y72.493 E9.13975
G1 X129.214 Y73.750 E9.28971
G1 X129.214 Y126.250 E15.52489
G1 X128.817 Y128.525 E15.79911
G1 X127.673 Y130.530 E16.07334
G1 X125.917 Y132.030 E16.34756
G1 X123.757 Y132.845 E16.62179
G1 X122.500 Y132.964 E16.77175
G1 X77.500 Y132.964 E22.11619
G1 X75.225 Y132.567 E22.39041
G1 X73.220 Y131.423 E22.66464
G1 X71.720 Y129.667 E22.93886
G1 X70.905 Y127.507 E23.21308
G1 X70.786 Y126.250 E23.36305
G1 X70.786 Y73.750 E29.59822
G1 X71.183 Y71.475 E29.87245
G1 X72.297 Y69.522 E30.13955
G1 E28.13955 F2400.00000
G92 E0
G1 X86.358 Y121.697 F12000.000
G1 E2.00000 F2400.00000
G1 X85.353 Y121.697 E2.11932 F1800.000
G1 X85.267 Y122.012 E2.15817
G1 X86.020 Y122.457 E2.26194
G1 X86.409 Y122.994 E2.34077
G1 X86.547 Y123.666 E2.42226
G1 X86.410 Y124.346 E2.50464
G1 X86.021 Y124.888 E2.58388
G1 X85.441 Y125.233 E2.66401
G1 X84.736 Y125.350 E2.74880
G1 X84.024 Y125.233 E2.83450
G1 X83.440 Y124.889 E2.91506
G1 X83.048 Y124.347 E2.99451
G1 X82.911 Y123.666 E3.07698
G1 X83.049 Y122.993 E3.15856
G1 X83.441 Y122.456 E3.23759
G1 X84.197 Y122.013 E3.34167
G1 X84.112 Y121.697 E3.38061
G1 X83.100 Y121.697 E3.50077
G1 X83.100 Y112.993 E4.53450
G1 X86.358 Y112.993 E4.92144
G1 X86.358 Y121.637 E5.94804
G1 X86.358 Y122.097 F12000.000
G1 E3.94804 F2400.00000
G92 E0
G1 X86.958 Y112.393 F12000.000
G1 X84.500 Y80.250 F12000.000
G1 X84.385 Y80.136 F12000.000
G1 E2.00000 F2400.00000
G1 X82.969 Y80.136 E2.16819 F1800.000
G1 X83.787 Y79.213 E2.31466
G1 X84.008 Y78.314 E2.42460
G1 X84.385 Y78.360 E2.46968
G1 X84.385 Y80.076 E2.67350
G1 X84.008 Y77.186 F12000.000
G1 X83.787 Y76.287 E2.78344 F1800.000
G1 X82.526 Y74.864 E3.00924
G1 X84.385 Y74.864 E3.23005
G1 X84.385 Y77.140 E3.50037
G1 X84.068 Y77.179 E3.53833
G1 X83.315 Y77.357 F12000.000
G1 X83.412 Y77.750 E3.58641 F1800.000
G1 X83.136 Y78.871 E3.72352
G1 X82.370 Y79.735 E3.86062
G1 X81.291 Y80.144 E3.99773
G1 X80.145 Y80.005 E4.13484
G1 X79.195 Y79.349 E4.27195
G1 X78.658 Y78.327 E4.40905
G1 X78.658 Y77.173 E4.54616
G1 X79.195 Y76.151 E4.68327
G1 X80.145 Y75.495 E4.82038
G1 X81.098 Y75.379 E4.93441
G1 X81.291 Y75.356 E4.95749 F1800.000
G1 X82.370 Y75.765 E5.09459
G1 X83.136 Y76.629 E5.23170
G1 X83.301 Y77.299 E5.31361
G1 X83.699 Y77.468 F12000.000
G1 X81.026 Y74.783 F12000.000
G1 X79.915 Y74.834 F12000.000
G1 X79.874 Y74.842 F12000.000
G1 X78.896 Y75.146 F12000.000
G1 X79.365 Y75.165 F12000.000
G1 X78.614 Y75.683 E5.42196 F1800.000
G1 X78.614 Y74.864 E5.51927
G1 X79.271 Y74.864 E5.59730
G1 X79.347 Y75.108 E5.62762
G1 X87.843 Y74.864 F12000.000
G1 X89.144 Y74.864 E5.78209 F1800.000
G1 X89.235 Y75.170 E5.82000
G1 X87.843 Y76.083 E6.01773
G1 X87.843 Y74.924 E6.15540
G1 X91.323 Y75.170 F12000.000
G1 X91.415 Y74.864 E6.19328 F1800.000
G1 X93.009 Y74.864 E6.38259
G1 X92.622 Y76.025 E6.52787
G1 X91.373 Y75.203 E6.70539
G1 X95.873 Y74.864 F12000.000
G1 X97.443 Y74.864 E6.89186 F1800.000
G1 X97.533 Y75.172 E6.93001
G1 X96.241 Y75.998 E7.11211
G1 X95.892 Y74.921 E7.24655
G1 E5.24655 F2400.00000
G92 E0
G1 X95.878 Y75.000 F12000.000
G1 X109.643 Y112.393 F12000.000
G1 X109.529 Y112.279 F12000.000
G1 E2.00000 F2400.00000
G1 X118.979 Y112.279 E3.12237 F1800.000
G1 X118.979 Y118.339 E3.84218
G1 X118.813 Y119.902 E4.02883
G1 X118.198 Y121.310 E4.21125
G1 X117.016 Y122.301 E4.39446
G1 X115.449 Y122.617 E4.58432
G1 X114.379 Y122.483 E4.71236
G1 X113.634 Y122.196 E4.80711
G1 X113.598 Y122.411 E4.83297
G1 X109.529 Y122.411 E5.31628
G1 X109.529 Y112.339 E6.51252
G1 X110.243 Y112.993 F12000.000
G1 X113.501 Y112.993 E6.89946 F1800.000
G1 X113.501 Y118.490 E7.55229
G1 X113.691 Y118.658 E7.58244
G1 X113.955 Y118.841 E7.62060
G1 X114.197 Y118.941 E7.65167
G1 X114.467 Y118.973 E7.68405
G1 X114.715 Y118.933 E7.71385
G1 X114.835 Y118.837 E7.73215
G1 X114.944 Y118.560 E7.76744
G1 X114.993 Y117.958 E7.83910
G1 X114.993 Y112.993 E8.42884
G1 X118.265 Y112.993 E8.81744
G1 X118.265 Y118.302 E9.44793
G1 X118.114 Y119.717 E9.61701
G1 X117.611 Y120.870 E9.76645
G1 X116.696 Y121.637 E9.90814
G1 X115.422 Y121.894 E10.06255
G1 X114.554 Y121.785 E10.16640
G1 X113.805 Y121.497 E10.26174
G1 X113.104 Y121.048 E10.36059
G1 X112.994 Y121.697 E10.43871
G1 X110.243 Y121.697 E10.76551
G1 X110.243 Y113.053 E11.79211
G1 X110.243 Y112.593 F12000.000
G1 X117.853 Y93.602 F12000.000
G1 X116.255 Y94.672 E12.02052 F1800.000
G1 X115.459 Y95.070 E12.12625
G1 X114.511 Y95.358 E12.24390
G1 X113.395 Y95.468 E12.37716
G1 X111.817 Y95.239 E12.56645
G1 X110.473 Y94.524 E12.74726
G1 X109.549 Y93.342 E12.92550
G1 X109.225 Y91.830 E13.10917
G1 X109.517 Y90.498 E13.27107
G1 X110.259 Y89.507 E13.41816
G1 X108.396 Y86.891 E13.79964
G1 X110.077 Y85.740 E14.04153
G1 X111.011 Y85.313 E14.16359
G1 X112.000 Y85.039 E14.28547
G1 X113.026 Y84.936 E14.40787
G1 X114.775 Y85.180 E14.61759
G1 X116.194 Y85.932 E14.80834
G1 X117.123 Y87.147 E14.98996
G1 X117.433 Y88.638 E15.17082
G1 X117.152 Y90.023 E15.33871
G1 X116.411 Y91.033 E15.48740
G1 X116.085 Y91.258 E15.53454
G1 X117.817 Y93.554 E15.87609
G1 X116.828 Y93.429 F12000.000
G1 X115.895 Y94.053 E16.00940 F1800.000
G1 X115.194 Y94.404 E16.10256
G1 X114.371 Y94.654 E16.20467
G1 X113.411 Y94.749 E16.31926
G1 X112.043 Y94.550 E16.48344
G1 X110.942 Y93.965 E16.63150
G1 X110.213 Y93.032 E16.77219
G1 X109.956 Y91.832 E16.91795
G1 X110.181 Y90.802 E17.04308
G1 X110.755 Y90.036 E17.15686
G1 X111.498 Y89.505 E17.26526
G1 X112.263 Y89.147 E17.36559
G1 X112.852 Y88.919 E17.44058
G1 X113.307 Y88.716 E17.49978
G1 X113.811 Y88.356 E17.57332
G1 X113.061 Y88.279 E17.66283
G1 X112.668 Y88.322 E17.70974
G1 X112.249 Y88.456 E17.76201
G1 X111.794 Y88.690 E17.82274
G1 X110.962 Y89.263 E17.94273
G1 X109.400 Y87.069 E18.26258
G1 X110.429 Y86.364 E18.41076
G1 X111.257 Y85.986 E18.51882
G1 X112.132 Y85.743 E18.62673
G1 X113.012 Y85.655 E18.73169
G1 X114.551 Y85.870 E18.91632
G1 X115.721 Y86.490 E19.07359
G1 X116.457 Y87.451 E19.21733
G1 X116.704 Y88.640 E19.36145
G1 X116.483 Y89.727 E19.49328
G1 X115.906 Y90.513 E19.60906
G1 X115.066 Y91.094 E19.73038
G1 X116.792 Y93.381 E20.07061
G1 X117.057 Y93.757 F12000.000
G1 X87.072 Y112.279 F12000.000
G1 X82.386 Y112.279 E20.62719 F1800.000
G1 X82.386 Y122.411 E21.83055
G1 X82.439 Y122.411 E21.83689
G1 X82.182 Y123.665 E21.98894
G1 X82.379 Y124.640 E22.10702
G1 X82.737 Y125.136 E22.17970
G1 X78.614 Y125.136 E22.66934
G1 X78.614 Y103.036 E25.29401
G1 X87.196 Y103.036 E26.31320
G1 X90.638 Y102.682 E26.72414
G1 X93.673 Y101.403 E27.11528
G1 X95.820 Y98.914 E27.50566
G1 X96.582 Y95.198 E27.95620
G1 X95.817 Y91.528 E28.40148
G1 X93.708 Y88.923 E28.79947
G1 X90.722 Y87.452 E29.19484
G1 X87.351 Y87.003 E29.59866
G1 X85.975 Y87.003 E29.76211
G1 X85.975 Y81.300 E30.43939
G1 X87.021 Y81.300 E30.56359
G1 X87.100 Y81.339 E30.57411
G1 X87.676 Y81.432 E30.64338
G1 X88.005 Y81.418 E30.68250
G1 X88.305 Y81.374 E30.71851
G1 X88.976 Y81.128 E30.80336
G1 X89.126 Y81.226 E30.82466
G1 X90.281 Y81.449 E30.96444
G1 X91.049 Y81.300 E31.05731
G1 X97.772 Y81.300 E31.85576
G1 X98.501 Y81.450 E31.94413
G1 X99.781 Y81.199 E32.09909
G1 X99.781 Y81.300 E32.11105
G1 X102.484 Y81.300 E32.43201
G1 X102.627 Y81.355 E32.45022
G1 X103.319 Y81.442 E32.53311
G1 X104.332 Y81.238 E32.65574
G1 X105.047 Y80.637 E32.76670
G1 X106.019 Y81.234 E32.90218
G1 X107.164 Y81.437 E33.04019
G1 X107.754 Y81.385 E33.11063
G1 X108.258 Y81.243 E33.17278
G1 X108.753 Y80.998 E33.23837
G1 X109.353 Y81.235 E33.31497
G1 X109.946 Y81.380 E33.38752
G1 X110.621 Y81.435 E33.46792
G1 X111.914 Y81.229 E33.62346
G1 X111.914 Y81.300 E33.63186
G1 X114.617 Y81.300 E33.95283
G1 X114.760 Y81.355 E33.97104
G1 X115.452 Y81.442 E34.05393
G1 X116.464 Y81.238 E34.17655
G1 X116.980 Y80.805 E34.25646
G1 X117.379 Y81.019 E34.31020
G1 X117.925 Y81.235 E34.37996
G1 X118.518 Y81.380 E34.45244
G1 X119.193 Y81.435 E34.53291
G1 X120.244 Y81.268 E34.65935
G1 X121.386 Y80.513 E34.82188
G1 X121.386 Y125.136 E40.12151
G1 X86.722 Y125.136 E44.23835
G1 X87.080 Y124.638 E44.31115
G1 X87.275 Y123.665 E44.42900
G1 X87.019 Y122.411 E44.58102
G1 X87.072 Y122.411 E44.58735
G1 X87.072 Y112.339 E45.78359
G1 X79.488 Y102.322 F12000.000
G1 X87.159 Y102.322 E46.69459 F1800.000
G1 X90.458 Y101.982 E47.08851
G1 X93.241 Y100.810 E47.44714
G1 X95.158 Y98.589 E47.79556
G1 X95.852 Y95.199 E48.20646
G1 X95.153 Y91.843 E48.61368
G1 X93.252 Y89.495 E48.97250
G1 X90.511 Y88.145 E49.33533
G1 X87.304 Y87.717 E49.71960
G1 X85.261 Y87.717 E49.96224
G1 X85.261 Y80.586 E50.80916
G1 X86.859 Y80.586 E50.99895
G1 X86.878 Y80.435 E51.01699
G1 X87.319 Y80.651 E51.07526
G1 X87.719 Y80.715 E51.12340
G1 X88.128 Y80.679 E51.17222
G1 X88.681 Y80.475 E51.24213
G1 X88.590 Y80.019 E51.29734
G1 X89.400 Y80.552 E51.41240
G1 X90.281 Y80.721 E51.51899
G1 X91.158 Y80.552 E51.62512
G1 X91.674 Y80.211 E51.69852
G1 X91.916 Y80.397 E51.73478
G1 X91.853 Y80.586 E51.75843
G1 X93.962 Y80.586 E52.00880
G1 X94.276 Y79.364 E52.15862
G1 X94.607 Y79.363 E52.19785
G1 X94.935 Y80.586 E52.34829
G1 X96.979 Y80.586 E52.59106
G1 X96.917 Y80.395 E52.61491
G1 X97.164 Y80.211 E52.65138
G1 X97.649 Y80.546 E52.72138
G1 X98.504 Y80.722 E52.82511
G1 X99.420 Y80.543 E52.93591
G1 X100.094 Y80.029 E53.03655
G1 X100.169 Y79.886 E53.05572
G1 X100.495 Y79.966 E53.09566
G1 X100.495 Y80.586 E53.16926
G1 X102.237 Y80.586 E53.37606
G1 X102.261 Y80.449 E53.39256
G1 X102.802 Y80.657 E53.46138
G1 X103.293 Y80.719 E53.52007
G1 X104.012 Y80.574 E53.60722
G1 X104.544 Y80.127 E53.68975
G1 X104.921 Y79.263 E53.80173
G1 X105.479 Y80.065 E53.91775
G1 X106.277 Y80.555 E54.02897
G1 X107.195 Y80.717 E54.13963
G1 X107.625 Y80.679 E54.19091
G1 X108.001 Y80.573 E54.23725
G1 X108.335 Y80.408 E54.28153
G1 X108.691 Y80.147 E54.33396
G1 X109.107 Y80.370 E54.39003
G1 X109.570 Y80.553 E54.44910
G1 X110.061 Y80.673 E54.50914
G1 X110.594 Y80.717 E54.57264
G1 X111.407 Y80.587 E54.67047
G1 X112.063 Y80.153 E54.76384
G1 X112.306 Y79.710 E54.82390
G1 X112.628 Y79.793 E54.86338
G1 X112.628 Y80.586 E54.95761
G1 X114.370 Y80.586 E55.16441
G1 X114.394 Y80.449 E55.18090
G1 X114.935 Y80.657 E55.24973
G1 X115.425 Y80.719 E55.30841
G1 X116.145 Y80.574 E55.39557
G1 X116.677 Y80.127 E55.47810
G1 X116.781 Y79.889 E55.50893
G1 X117.680 Y80.370 E55.62997
G1 X118.142 Y80.553 E55.68904
G1 X118.633 Y80.673 E55.74902
G1 X119.166 Y80.717 E55.81257
G1 X119.979 Y80.587 E55.91040
G1 X120.635 Y80.153 E56.00378
G1 X121.029 Y79.437 E56.10086
G1 X121.148 Y78.530 E56.20946
G1 X121.148 Y75.850 E56.52777
G1 X119.421 Y75.850 E56.73281
G1 X119.394 Y75.970 E56.74742
G1 X118.895 Y75.798 E56.81009
G1 X118.475 Y75.750 E56.86034
G1 X117.840 Y75.872 E56.93714
G1 X117.040 Y76.433 E57.05320
G1 X117.040 Y75.850 E57.12248
G1 X110.849 Y75.850 E57.85774
G1 X110.822 Y75.970 E57.87235
G1 X110.323 Y75.798 E57.93501
G1 X109.903 Y75.750 E57.98526
G1 X109.268 Y75.872 E58.06206
G1 X108.645 Y76.309 E58.15233
G1 X108.398 Y76.121 E58.18922
G1 X107.987 Y75.900 E58.24459
G1 X108.231 Y75.551 E58.29512
G1 X108.303 Y75.149 E58.34359
G1 X108.133 Y74.578 E58.41445
G1 X107.607 Y74.150 E58.49495
G1 X122.100 Y74.150 E60.21621
G1 X122.100 Y125.850 E66.35637
G1 X77.900 Y125.850 E71.60579
G1 X77.900 Y74.150 E77.74595
G1 X105.915 Y74.150 E81.07319
G1 X105.726 Y75.180 E81.19752
G1 X105.810 Y75.188 E81.20749
G1 X106.183 Y75.954 E81.30876
G1 X105.897 Y76.053 E81.34463
G1 X104.907 Y76.880 E81.49782
G1 X104.907 Y75.850 E81.62009
G1 X100.495 Y75.850 E82.14402
G1 X100.495 Y76.400 E82.20935
G1 X99.902 Y76.051 E82.29112
G1 X99.487 Y75.887 E82.34409
G1 X99.061 Y75.787 E82.39611
G1 X98.620 Y75.751 E82.44867
G1 X97.699 Y75.914 E82.55969
G1 X96.922 Y76.410 E82.66921
G1 X96.406 Y77.206 E82.78183
G1 X96.342 Y77.570 E82.82571
G1 X96.008 Y77.593 E82.86550
G1 X95.442 Y75.850 E83.08318
G1 X93.433 Y75.850 E83.32184
G1 X92.837 Y77.638 E83.54563
G1 X92.505 Y77.614 E83.58510
G1 X92.429 Y77.200 E83.63514
G1 X91.910 Y76.411 E83.74730
G1 X91.158 Y75.916 E83.85419
G1 X90.281 Y75.747 E83.96028
G1 X89.400 Y75.916 E84.06683
G1 X88.646 Y76.411 E84.17394
G1 X88.126 Y77.200 E84.28618
G1 X87.937 Y78.230 E84.41057
G1 X88.032 Y78.754 E84.47382
G1 X87.752 Y78.816 E84.50795
G1 X87.600 Y78.828 E84.52604
G1 X87.486 Y78.809 E84.53982
G1 X87.367 Y78.746 E84.55569
G1 X87.235 Y78.610 E84.57828
G1 X87.129 Y78.414 E84.60473
G1 X87.129 Y75.850 E84.90925
G1 X85.100 Y75.850 E85.15028
G1 X85.100 Y80.850 E85.74411
G1 X79.488 Y80.850 E86.41050
G1 X79.488 Y102.262 E88.95350
G1 X79.488 Y102.722 F12000.000
G1 E86.95350 F2400.00000
G92 E0
G1 X85.861 Y87.117 F12000.000
G1 X88.914 Y84.246 F12000.000
G1 X89.013 Y83.029 F12000.000
G1 X88.953 Y82.244 F12000.000
G1 X89.170 Y81.118 F12000.000
G1 X92.680 Y78.028 F12000.000
G1 E2.00000 F2400.00000
G1 X92.386 Y79.174 E2.14053 F1800.000
G1 X92.016 Y79.969 E2.24473
G1 E0.24473 F2400.00000
G92 E0
G1 X94.448 Y81.085 F12000.000
G1 X94.448 Y81.085 F12000.000
G1 X96.157 Y77.984 F12000.000
G1 E2.00000 F2400.00000
G1 X96.455 Y79.165 E2.14468 F1800.000
G1 X96.821 Y79.968 E2.24946
G1 E0.24946 F2400.00000
G92 E0
G1 X97.784 Y81.186 F12000.000
G1 X97.784 Y81.186 F12000.000
G1 X97.908 Y77.653 F12000.000
G1 E2.00000 F2400.00000
G1 X98.569 Y77.504 E2.08045 F1800.000
G1 X98.822 Y77.488 E2.11055
G1 X99.121 Y77.511 E2.14625
G1 X99.515 Y77.598 E2.19418
G1 X99.955 Y77.523 E2.24720
G1 X100.260 Y77.350 E2.28881
G1 X100.370 Y77.400 E2.30308
G1 X100.518 Y77.811 E2.35490
G1 X100.539 Y78.073 E2.38617
G1 X100.547 Y78.452 E2.43115
G1 X100.471 Y79.548 E2.56169
G1 E0.56169 F2400.00000
G92 E0
G1 X102.505 Y81.186 F12000.000
G1 X102.505 Y81.186 F12000.000
G1 X102.669 Y79.241 F12000.000
G1 E2.00000 F2400.00000
G1 X102.698 Y78.530 E2.08448 F1800.000
G1 X102.698 Y76.250 E2.35524
G1 E0.35524 F2400.00000
G92 E0
G1 X105.103 Y75.250 F12000.000
G1 X105.103 Y75.250 F12000.000
G1 X107.890 Y78.557 F12000.000
G1 E2.00000 F2400.00000
G1 X107.333 Y78.916 E2.07871 F1800.000
G1 X107.088 Y78.865 E2.10848
G1 X106.953 Y78.760 E2.12880
G1 X106.848 Y78.559 E2.15569
G1 X106.804 Y78.235 E2.19459
G1 X106.849 Y77.913 E2.23315
G1 X106.954 Y77.710 E2.26034
G1 X107.083 Y77.606 E2.27991
G1 X107.262 Y77.566 E2.30172
G1 X107.339 Y77.575 E2.31091
G1 X107.561 Y77.670 E2.33964
G1 X108.054 Y78.020 E2.41140
G1 X108.363 Y77.485 E2.48474
G1 X108.505 Y78.111 E2.56085
G1 X109.021 Y78.665 E2.65082
G1 X108.578 Y79.503 E2.76332
G1 X107.925 Y78.605 E2.89511
G1 X107.667 Y78.225 F12000.000
G1 X109.964 Y81.267 F12000.000
G1 X110.491 Y83.407 F12000.000
G1 X111.746 Y83.168 F12000.000
G1 X111.770 Y82.042 F12000.000
G1 X111.630 Y81.159 F12000.000
G1 X112.548 Y79.359 F12000.000
G1 X112.602 Y78.504 E2.99686 F1800.000
G1 X112.602 Y76.250 E3.26456
G1 E1.26456 F2400.00000
G92 E0
G1 X114.831 Y76.250 F12000.000
G1 E2.00000 F2400.00000
G1 X114.831 Y78.530 E2.27076 F1800.000
G1 X114.802 Y79.241 E2.35524
G1 E0.35524 F2400.00000
G92 E0
G1 X116.965 Y80.668 F12000.000
G1 X116.965 Y80.668 F12000.000
G1 X117.008 Y79.028 F12000.000
G1 E2.00000 F2400.00000
G1 X117.040 Y78.728 E2.03591 F1800.000
G1 X117.040 Y78.071 E2.11395
G1 X117.593 Y78.665 E2.21041
G1 X117.346 Y79.132 E2.27304
G1 X117.065 Y79.046 E2.30794
G1 X117.201 Y78.796 F12000.000
G1 E0.30794 F2400.00000
G92 E0
G1 X115.448 Y81.327 F12000.000
G1 X115.197 Y83.327 F12000.000
G1 X115.017 Y83.299 F12000.000
G1 X114.739 Y85.291 F12000.000
G1 X114.541 Y91.323 F12000.000
G1 E2.00000 F2400.00000
G1 X114.708 Y91.665 E2.04518 F1800.000
