; generated by Slic3r 1.2.9 on 2017-05-16 at 12:52:25

; external perimeters extrusion width = 0.40mm
; perimeters extrusion width = 0.40mm
; infill extrusion width = 0.65mm
; solid infill extrusion width = 0.40mm
; top infill extrusion width = 0.40mm
; support material extrusion width = 0.40mm

M104 S205 ; set temperature
; -- START GCODE --
M800        ; Custom GCODE to fire start print procedure
; -- end of START GCODE --
M109 S205 ; wait for temperature to be reached
G21 ; set units to millimeters
G90 ; use absolute coordinates
M82 ; use absolute distances for extrusion
G92 E0
M106 S255
; LAYER 0, HEIGHT 0.1
G1 Z0.100 F12000.000
G1 E-2.00000 F12000.00000
G92 E0
G1 X90.189 Y130.049 F12000.000
G1 E2.00000 F12000.00000
M204 S1000
G1 X93.522 Y129.201 E2.05412 F4320.000
G1 X94.141 Y129.186 E2.06387
G1 X116.159 Y129.186 E2.41038
G1 X117.652 Y129.328 E2.43399
G1 X117.853 Y129.367 E2.43720
G1 X120.206 Y130.225 E2.47662
G1 X122.172 Y131.777 E2.51605
G1 X123.552 Y133.867 E2.55547
G1 X124.252 Y137.045 E2.60668
G1 X124.258 Y159.713 E2.96342
G1 X123.421 Y163.207 E3.01996
G1 X123.301 Y163.447 E3.02418
G1 X121.838 Y165.479 E3.06360
G1 X119.811 Y166.951 E3.10302
G1 X116.416 Y167.801 E3.15809
G1 X115.719 Y167.814 E3.16907
G1 X93.701 Y167.814 E3.51558
G1 X91.228 Y167.417 E3.55500
G1 X89.458 Y166.577 E3.58584
G1 X87.526 Y164.873 E3.62638
G1 X86.270 Y162.706 E3.66580
G1 X85.748 Y159.941 E3.71008
G1 X85.742 Y137.272 E4.06685
G1 X86.579 Y133.793 E4.12315
G1 X86.699 Y133.553 E4.12738
G1 X88.162 Y131.521 E4.16680
G1 X90.141 Y130.084 E4.20527
G1 X90.467 Y130.333 F12000.000
G1 X93.533 Y129.579 E4.25496 F4320.000
G1 X94.141 Y129.564 E4.26453
G1 X116.159 Y129.564 E4.61105
G1 X117.580 Y129.700 E4.63352
G1 X117.781 Y129.739 E4.63674
G1 X120.074 Y130.585 E4.67519
G1 X121.973 Y132.122 E4.71365
G1 X123.279 Y134.187 E4.75211
G1 X123.874 Y137.049 E4.79810
G1 X123.879 Y159.711 E5.15475
G1 X123.083 Y163.037 E5.20858
G1 X122.963 Y163.277 E5.21281
G1 X121.527 Y165.254 E5.25126
G1 X119.533 Y166.667 E5.28972
G1 X116.408 Y167.423 E5.34032
G1 X115.719 Y167.436 E5.35116
G1 X93.701 Y167.436 E5.69768
G1 X91.290 Y167.038 E5.73614
G1 X89.661 Y166.258 E5.76456
G1 X87.781 Y164.588 E5.80413
G1 X86.581 Y162.459 E5.84259
G1 X86.126 Y159.939 E5.88290
G1 X86.121 Y137.274 E6.23958
G1 X86.917 Y133.963 E6.29319
G1 X87.037 Y133.723 E6.29741
G1 X88.473 Y131.746 E6.33586
G1 X90.418 Y130.368 E6.37338
G1 X90.743 Y130.621 F12000.000
G1 X93.544 Y129.957 E6.41868 F4320.000
G1 X93.930 Y129.946 E6.42475
G1 X116.159 Y129.943 E6.77459
G1 X117.509 Y130.072 E6.79593
G1 X117.709 Y130.110 E6.79915
G1 X119.939 Y130.944 E6.83662
G1 X121.771 Y132.466 E6.87409
G1 X123.000 Y134.505 E6.91156
G1 X123.495 Y137.052 E6.95239
G1 X123.501 Y159.709 E7.30896
G1 X122.744 Y162.867 E7.36008
G1 X122.624 Y163.107 E7.36430
G1 X121.217 Y165.028 E7.40177
G1 X119.257 Y166.379 E7.43924
G1 X116.400 Y167.044 E7.48541
G1 X115.719 Y167.057 E7.49612
G1 X93.701 Y167.057 E7.84264
G1 X91.353 Y166.660 E7.88011
G1 X89.865 Y165.938 E7.90614
G1 X88.038 Y164.303 E7.94473
G1 X86.896 Y162.214 E7.98220
G1 X86.505 Y159.936 E8.01858
G1 X86.499 Y137.277 E8.37517
G1 X87.256 Y134.132 E8.42607
G1 X87.376 Y133.893 E8.43030
G1 X88.783 Y131.972 E8.46777
G1 X90.694 Y130.655 E8.50429
G1 X91.017 Y130.912 F12000.000
G1 X93.555 Y130.336 E8.54525 F4320.000
G1 X93.941 Y130.324 E8.55133
G1 X116.159 Y130.321 E8.90099
G1 X117.437 Y130.443 E8.92120
G1 X117.638 Y130.482 E8.92441
G1 X119.804 Y131.304 E8.96087
G1 X121.565 Y132.808 E8.99732
G1 X122.714 Y134.820 E9.03378
G1 X123.116 Y137.056 E9.06953
G1 X123.122 Y159.707 E9.42601
G1 X122.406 Y162.698 E9.47442
G1 X122.286 Y162.938 E9.47864
G1 X120.908 Y164.800 E9.51510
G1 X118.983 Y166.088 E9.55155
G1 X116.392 Y166.666 E9.59334
G1 X115.719 Y166.679 E9.60392
G1 X93.701 Y166.679 E9.95044
G1 X91.419 Y166.282 E9.98689
G1 X90.068 Y165.619 E10.01056
G1 X88.297 Y164.019 E10.04814
G1 X87.214 Y161.971 E10.08459
G1 X86.883 Y159.933 E10.11709
G1 X86.878 Y137.280 E10.47360
G1 X87.594 Y134.302 E10.52180
G1 X87.714 Y134.062 E10.52602
G1 X89.092 Y132.200 E10.56248
G1 X90.967 Y130.946 E10.59799
G1 X91.289 Y131.207 F12000.000
G1 X93.566 Y130.714 E10.63466 F4320.000
G1 X93.952 Y130.703 E10.64074
G1 X116.159 Y130.700 E10.99022
G1 X117.366 Y130.815 E11.00930
G1 X117.566 Y130.854 E11.01251
G1 X119.666 Y131.662 E11.04793
G1 X121.354 Y133.150 E11.08334
G1 X122.421 Y135.131 E11.11875
G1 X122.738 Y137.059 E11.14950
G1 X122.744 Y159.705 E11.50589
G1 X122.068 Y162.528 E11.55159
G1 X121.947 Y162.768 E11.55581
G1 X120.600 Y164.570 E11.59122
G1 X118.711 Y165.793 E11.62663
G1 X116.383 Y166.287 E11.66408
G1 X115.719 Y166.300 E11.67454
G1 X93.701 Y166.300 E12.02106
G1 X91.486 Y165.903 E12.05647
G1 X90.272 Y165.300 E12.07780
G1 X88.557 Y163.736 E12.11433
G1 X87.535 Y161.731 E12.14974
G1 X87.262 Y159.930 E12.17841
G1 X87.256 Y137.283 E12.53483
G1 X87.932 Y134.472 E12.58034
G1 X88.053 Y134.232 E12.58456
G1 X89.400 Y132.430 E12.61997
G1 X91.239 Y131.240 E12.65444
G1 E10.65444 F12000.00000
G92 E0
G1 X93.083 Y134.605 F12000.000
G1 E2.00000 F12000.00000
G1 X93.742 Y134.418 E2.01078 F4320.000
G1 X115.361 Y134.418 E2.35102
G1 X115.449 Y134.396 E2.35245
G1 X115.622 Y134.307 E2.35550
G1 X117.488 Y134.588 E2.38522
G1 X118.627 Y135.709 E2.41036
G1 X119.032 Y138.129 E2.44898
G1 X119.035 Y138.518 E2.45510
G1 X118.984 Y138.860 E2.46055
G1 X119.031 Y139.021 E2.46319
G1 X119.031 Y141.891 E2.50835
G1 X118.989 Y142.254 E2.51411
G1 X119.031 Y142.401 E2.51651
G1 X119.031 Y145.270 E2.56167
G1 X118.989 Y145.633 E2.56742
G1 X119.031 Y145.780 E2.56982
G1 X119.031 Y148.650 E2.61498
G1 X118.989 Y149.013 E2.62074
G1 X119.031 Y149.159 E2.62314
G1 X119.031 Y152.029 E2.66830
G1 X118.989 Y152.392 E2.67405
G1 X119.031 Y152.538 E2.67645
G1 X119.031 Y155.408 E2.72162
G1 X118.989 Y155.771 E2.72737
G1 X119.031 Y155.918 E2.72977
G1 X119.031 Y158.787 E2.77493
G1 X118.998 Y159.072 E2.77943
G1 X118.922 Y159.395 E2.78467
G1 X118.824 Y159.664 E2.78917
G1 X117.641 Y162.025 E2.83073
G1 X115.706 Y162.667 E2.86281
G1 X115.508 Y162.568 E2.86630
G1 X115.367 Y162.555 E2.86853
G1 X115.271 Y162.582 E2.87010
G1 X92.950 Y162.582 E3.22139
G1 X91.832 Y161.959 E3.24153
G1 X91.042 Y160.680 E3.26519
G1 X90.989 Y159.474 E3.28418
G1 X90.969 Y159.419 E3.28510
G1 X90.969 Y156.519 E3.33074
G1 X91.011 Y156.156 E3.33649
G1 X90.969 Y156.010 E3.33889
G1 X90.969 Y153.140 E3.38406
G1 X91.011 Y152.777 E3.38981
G1 X90.969 Y152.630 E3.39221
G1 X90.969 Y149.761 E3.43737
G1 X91.011 Y149.398 E3.44312
G1 X90.969 Y149.251 E3.44552
G1 X90.969 Y146.381 E3.49069
G1 X91.011 Y146.018 E3.49644
G1 X90.969 Y145.872 E3.49884
G1 X90.969 Y143.002 E3.54400
G1 X91.011 Y142.639 E3.54976
G1 X90.969 Y142.493 E3.55216
G1 X90.969 Y139.623 E3.59732
G1 X91.002 Y139.339 E3.60182
G1 X91.114 Y138.916 E3.60871
G1 X91.116 Y138.788 E3.61072
G1 X90.794 Y137.819 E3.62680
G1 X91.941 Y135.530 E3.66709
G1 X92.404 Y135.024 E3.67787
G1 X93.032 Y134.636 E3.68949
G1 X93.237 Y134.955 F12000.000
G1 X93.794 Y134.797 E3.69861 F4320.000
G1 X115.453 Y134.797 E4.03948
G1 X115.542 Y134.775 E4.04091
G1 X115.687 Y134.700 E4.04348
G1 X117.311 Y134.944 E4.06932
G1 X118.274 Y135.892 E4.09060
G1 X118.654 Y138.162 E4.12682
G1 X118.657 Y138.491 E4.13199
G1 X118.585 Y138.966 E4.13956
G1 X118.625 Y139.118 E4.14203
G1 X118.653 Y139.153 E4.14273
G1 X118.653 Y141.869 E4.18547
G1 X118.625 Y142.109 E4.18928
G1 X118.576 Y142.314 E4.19258
G1 X118.614 Y142.483 E4.19532
G1 X118.653 Y142.532 E4.19630
G1 X118.653 Y145.248 E4.23905
G1 X118.625 Y145.489 E4.24286
G1 X118.576 Y145.693 E4.24616
G1 X118.614 Y145.862 E4.24889
G1 X118.653 Y145.911 E4.24987
G1 X118.653 Y148.628 E4.29262
G1 X118.625 Y148.868 E4.29643
G1 X118.576 Y149.072 E4.29973
G1 X118.614 Y149.242 E4.30246
G1 X118.653 Y149.291 E4.30345
G1 X118.653 Y152.007 E4.34619
G1 X118.625 Y152.247 E4.35000
G1 X118.576 Y152.451 E4.35331
G1 X118.614 Y152.621 E4.35604
G1 X118.653 Y152.670 E4.35702
G1 X118.653 Y155.386 E4.39977
G1 X118.625 Y155.627 E4.40358
G1 X118.576 Y155.831 E4.40688
G1 X118.614 Y156.000 E4.40961
G1 X118.653 Y156.049 E4.41059
G1 X118.653 Y158.765 E4.45334
G1 X118.625 Y159.006 E4.45715
G1 X118.558 Y159.287 E4.46170
G1 X118.476 Y159.514 E4.46551
G1 X117.373 Y161.715 E4.50425
G1 X115.736 Y162.259 E4.53139
G1 X115.546 Y162.164 E4.53472
G1 X115.405 Y162.151 E4.53696
G1 X115.219 Y162.203 E4.54001
G1 X93.048 Y162.203 E4.88893
G1 X92.102 Y161.676 E4.90597
G1 X91.416 Y160.565 E4.92652
G1 X91.347 Y159.296 E4.94652
G1 X91.347 Y156.541 E4.98987
G1 X91.375 Y156.301 E4.99368
G1 X91.424 Y156.097 E4.99699
G1 X91.386 Y155.927 E4.99972
G1 X91.347 Y155.878 E5.00070
G1 X91.347 Y153.162 E5.04345
G1 X91.375 Y152.921 E5.04726
G1 X91.424 Y152.717 E5.05056
G1 X91.386 Y152.548 E5.05329
G1 X91.347 Y152.499 E5.05428
G1 X91.347 Y149.783 E5.09702
G1 X91.375 Y149.542 E5.10083
G1 X91.424 Y149.338 E5.10413
G1 X91.386 Y149.169 E5.10687
G1 X91.347 Y149.120 E5.10785
G1 X91.347 Y146.403 E5.15060
G1 X91.375 Y146.163 E5.15441
G1 X91.424 Y145.959 E5.15771
G1 X91.386 Y145.789 E5.16044
G1 X91.347 Y145.740 E5.16142
G1 X91.347 Y143.024 E5.20417
G1 X91.375 Y142.784 E5.20798
G1 X91.424 Y142.579 E5.21128
G1 X91.386 Y142.410 E5.21401
G1 X91.347 Y142.361 E5.21500
G1 X91.347 Y139.645 E5.25774
G1 X91.375 Y139.404 E5.26155
G1 X91.442 Y139.123 E5.26610
G1 X91.515 Y138.922 E5.26948
G1 X91.517 Y138.794 E5.27149
G1 X91.203 Y137.848 E5.28717
G1 X92.256 Y135.746 E5.32417
G1 X92.647 Y135.319 E5.33329
G1 X93.186 Y134.986 E5.34325
G1 X93.391 Y135.304 F12000.000
G1 X93.847 Y135.175 E5.35072 F4320.000
G1 X115.546 Y135.175 E5.69220
G1 X115.634 Y135.153 E5.69364
G1 X115.752 Y135.092 E5.69573
G1 X117.133 Y135.300 E5.71770
G1 X117.921 Y136.076 E5.73511
G1 X118.276 Y138.195 E5.76893
G1 X118.278 Y138.464 E5.77316
G1 X118.228 Y138.793 E5.77839
G1 X118.163 Y139.001 E5.78182
G1 X118.197 Y139.186 E5.78479
G1 X118.274 Y139.284 E5.78676
G1 X118.274 Y141.847 E5.82709
G1 X118.251 Y142.044 E5.83021
G1 X118.163 Y142.369 E5.83551
G1 X118.195 Y142.563 E5.83861
G1 X118.274 Y142.664 E5.84062
G1 X118.274 Y145.226 E5.88095
G1 X118.251 Y145.423 E5.88407
G1 X118.163 Y145.748 E5.88937
G1 X118.195 Y145.943 E5.89247
G1 X118.274 Y146.043 E5.89449
G1 X118.274 Y148.605 E5.93481
G1 X118.251 Y148.802 E5.93793
G1 X118.163 Y149.127 E5.94323
G1 X118.195 Y149.322 E5.94633
G1 X118.274 Y149.422 E5.94835
G1 X118.274 Y151.985 E5.98868
G1 X118.251 Y152.182 E5.99179
G1 X118.163 Y152.507 E5.99709
G1 X118.195 Y152.701 E6.00019
G1 X118.274 Y152.802 E6.00221
G1 X118.274 Y155.364 E6.04254
G1 X118.251 Y155.561 E6.04565
G1 X118.163 Y155.886 E6.05096
G1 X118.195 Y156.080 E6.05405
G1 X118.274 Y156.181 E6.05607
G1 X118.274 Y158.743 E6.09640
G1 X118.251 Y158.940 E6.09952
G1 X118.195 Y159.178 E6.10337
G1 X118.127 Y159.364 E6.10649
G1 X117.105 Y161.405 E6.14241
G1 X115.765 Y161.850 E6.16462
G1 X115.585 Y161.760 E6.16780
G1 X115.443 Y161.746 E6.17004
G1 X115.166 Y161.825 E6.17457
G1 X93.146 Y161.825 E6.52111
G1 X92.373 Y161.393 E6.53506
G1 X91.790 Y160.450 E6.55251
G1 X91.751 Y159.564 E6.56646
G1 X91.817 Y159.432 E6.56878
G1 X91.795 Y159.213 E6.57226
G1 X91.726 Y159.126 E6.57400
G1 X91.726 Y156.563 E6.61433
G1 X91.749 Y156.366 E6.61745
G1 X91.837 Y156.041 E6.62275
G1 X91.805 Y155.847 E6.62585
G1 X91.726 Y155.746 E6.62786
G1 X91.726 Y153.184 E6.66819
G1 X91.749 Y152.987 E6.67131
G1 X91.837 Y152.662 E6.67661
G1 X91.805 Y152.468 E6.67971
G1 X91.726 Y152.367 E6.68173
G1 X91.726 Y149.805 E6.72205
G1 X91.749 Y149.608 E6.72517
G1 X91.837 Y149.283 E6.73047
G1 X91.805 Y149.088 E6.73357
G1 X91.726 Y148.988 E6.73559
G1 X91.726 Y146.425 E6.77592
G1 X91.749 Y146.229 E6.77903
G1 X91.837 Y145.903 E6.78434
G1 X91.805 Y145.709 E6.78743
G1 X91.726 Y145.609 E6.78945
G1 X91.726 Y143.046 E6.82978
G1 X91.749 Y142.849 E6.83290
G1 X91.837 Y142.524 E6.83820
G1 X91.805 Y142.330 E6.84130
G1 X91.726 Y142.229 E6.84331
G1 X91.726 Y139.667 E6.88364
G1 X91.749 Y139.470 E6.88676
G1 X91.805 Y139.232 E6.89061
G1 X91.912 Y138.966 E6.89512
G1 X91.923 Y138.816 E6.89749
G1 X91.611 Y137.878 E6.91305
G1 X92.571 Y135.963 E6.94676
G1 X92.891 Y135.613 E6.95422
G1 X93.340 Y135.336 E6.96252
G1 X93.545 Y135.654 F12000.000
G1 X93.900 Y135.554 E6.96833 F4320.000
G1 X115.638 Y135.554 E7.31044
G1 X115.817 Y135.485 E7.31346
G1 X116.955 Y135.656 E7.33157
G1 X117.568 Y136.260 E7.34511
G1 X117.897 Y138.228 E7.37652
G1 X117.899 Y138.437 E7.37981
G1 X117.858 Y138.707 E7.38411
G1 X117.795 Y138.907 E7.38740
G1 X117.737 Y139.024 E7.38946
G1 X117.759 Y139.243 E7.39293
G1 X117.896 Y139.416 E7.39640
G1 X117.896 Y141.825 E7.43431
G1 X117.832 Y142.173 E7.43989
G1 X117.737 Y142.403 E7.44380
G1 X117.759 Y142.622 E7.44727
G1 X117.896 Y142.795 E7.45074
G1 X117.896 Y145.204 E7.48865
G1 X117.832 Y145.553 E7.49422
G1 X117.737 Y145.782 E7.49814
G1 X117.759 Y146.002 E7.50161
G1 X117.896 Y146.175 E7.50508
G1 X117.896 Y148.583 E7.54299
G1 X117.832 Y148.932 E7.54856
G1 X117.737 Y149.162 E7.55248
G1 X117.759 Y149.381 E7.55595
G1 X117.896 Y149.554 E7.55942
G1 X117.896 Y151.963 E7.59733
G1 X117.832 Y152.311 E7.60290
G1 X117.737 Y152.541 E7.60682
G1 X117.759 Y152.760 E7.61029
G1 X117.896 Y152.933 E7.61376
G1 X117.896 Y155.342 E7.65167
G1 X117.832 Y155.690 E7.65724
G1 X117.737 Y155.920 E7.66115
G1 X117.759 Y156.140 E7.66463
G1 X117.896 Y156.312 E7.66809
G1 X117.896 Y158.721 E7.70600
G1 X117.878 Y158.874 E7.70843
G1 X117.779 Y159.214 E7.71400
G1 X116.836 Y161.095 E7.74712
G1 X115.795 Y161.441 E7.76439
G1 X115.623 Y161.355 E7.76742
G1 X115.481 Y161.342 E7.76965
G1 X115.113 Y161.446 E7.77567
G1 X93.245 Y161.446 E8.11984
G1 X92.643 Y161.111 E8.13068
G1 X92.164 Y160.334 E8.14504
G1 X92.133 Y159.646 E8.15588
G1 X92.263 Y159.386 E8.16046
G1 X92.241 Y159.167 E8.16393
G1 X92.104 Y158.994 E8.16739
G1 X92.104 Y156.585 E8.20531
G1 X92.168 Y156.237 E8.21088
G1 X92.263 Y156.007 E8.21479
G1 X92.241 Y155.788 E8.21826
G1 X92.104 Y155.615 E8.22173
G1 X92.104 Y153.206 E8.25964
G1 X92.168 Y152.858 E8.26522
G1 X92.263 Y152.628 E8.26913
G1 X92.241 Y152.408 E8.27260
G1 X92.104 Y152.236 E8.27607
G1 X92.104 Y149.827 E8.31398
G1 X92.168 Y149.478 E8.31956
G1 X92.263 Y149.249 E8.32347
G1 X92.241 Y149.029 E8.32694
G1 X92.104 Y148.856 E8.33041
G1 X92.104 Y146.447 E8.36832
G1 X92.168 Y146.099 E8.37390
G1 X92.263 Y145.869 E8.37781
G1 X92.241 Y145.650 E8.38128
G1 X92.104 Y145.477 E8.38475
G1 X92.104 Y143.068 E8.42266
G1 X92.168 Y142.720 E8.42823
G1 X92.263 Y142.490 E8.43215
G1 X92.241 Y142.271 E8.43562
G1 X92.104 Y142.098 E8.43909
G1 X92.104 Y139.689 E8.47700
G1 X92.168 Y139.341 E8.48257
G1 X92.321 Y138.996 E8.48851
G1 X92.332 Y138.846 E8.49088
G1 X92.020 Y137.907 E8.50644
G1 X92.886 Y136.180 E8.53685
G1 X93.135 Y135.908 E8.54266
G1 X93.494 Y135.686 E8.54930
G1 X93.699 Y136.004 F12000.000
G1 X93.952 Y135.932 E8.55345 F4320.000
G1 X95.345 Y135.932 E8.57537
G1 X95.525 Y135.966 E8.57825
G1 X95.646 Y135.932 E8.58023
G1 X97.039 Y135.932 E8.60215
G1 X97.219 Y135.966 E8.60503
G1 X97.340 Y135.932 E8.60701
G1 X98.733 Y135.932 E8.62893
G1 X98.913 Y135.966 E8.63181
G1 X99.034 Y135.932 E8.63379
G1 X100.427 Y135.932 E8.65571
G1 X100.606 Y135.966 E8.65859
G1 X100.727 Y135.932 E8.66057
G1 X102.120 Y135.932 E8.68249
G1 X102.300 Y135.966 E8.68537
G1 X102.421 Y135.932 E8.68735
G1 X103.814 Y135.932 E8.70928
G1 X103.994 Y135.966 E8.71216
G1 X104.115 Y135.932 E8.71413
G1 X105.508 Y135.932 E8.73606
G1 X105.687 Y135.966 E8.73894
G1 X105.808 Y135.932 E8.74092
G1 X107.201 Y135.932 E8.76284
G1 X107.381 Y135.966 E8.76572
G1 X107.502 Y135.932 E8.76770
G1 X108.895 Y135.932 E8.78962
G1 X109.075 Y135.966 E8.79250
G1 X109.196 Y135.932 E8.79448
G1 X110.589 Y135.932 E8.81640
G1 X110.769 Y135.966 E8.81928
G1 X110.889 Y135.932 E8.82126
G1 X112.282 Y135.932 E8.84318
G1 X112.462 Y135.966 E8.84606
G1 X112.583 Y135.932 E8.84804
G1 X113.976 Y135.932 E8.86996
G1 X114.156 Y135.966 E8.87284
G1 X114.277 Y135.932 E8.87482
G1 X115.730 Y135.932 E8.89770
G1 X115.882 Y135.878 E8.90024
G1 X116.777 Y136.012 E8.91448
G1 X117.215 Y136.443 E8.92415
G1 X117.519 Y138.261 E8.95316
G1 X117.520 Y138.411 E8.95551
G1 X117.489 Y138.621 E8.95886
G1 X117.443 Y138.764 E8.96121
G1 X117.290 Y139.070 E8.96660
G1 X117.313 Y139.289 E8.97007
G1 X117.517 Y139.548 E8.97526
